!!!!SEGMENT: pl-cz--iii-558--006_raszek-wacllaw--missa-in-c-credo.krn
!!!cenid: 17xx:1040
!!!COM: Raszek, Wacław
!!!COM-rismid: pe30020314
!!!CDT: <1848->1848
!!!CNT:
!!!OPR: Missa in C
!!!OTL: Credo
!!!OMV: 006
!!!PDT: 1789
!!!AGN: Sacred; Mass
!!!SMS-siglum: PL-CZ
!!!SMS-shelfmark: III-558
!!!SMS-shelfwork: 001-006 M
!!!SMS-variant:
!!!SMS-altvar:
!!!NIFC-rismid: 300001044
!!!URL-scan: http://repozytorium.nifc.pl/skany/pl-cz-nut--iii-558
!!!ONB-nifc: UWAGA: części Mszy: Kyrie, Gloria, Laudamus, Qui tollis, Quoniam, Credo, Et incarnatus, Et resurrexit, Sanctus, Benedictus, Agnus Dei, Dona nobis
!!!key: C
**kern	**fba	**kern	**dynam	**kern	**dynam	**kern	**dynam	**kern	**text	**kern	**text	**dynam	**kern	**text	**kern	**text	**kern	**kern	**dynam	**kern	**dynam	**kern	**kern	**kern	**kern
*	*	*group4	*	*group4	*	*group4	*	*group3	*	*group3	*	*	*group3	*	*group3	*	*	*group2	*	*group2	*	*group2	*group2	*group1	*group1
*part15	*part15	*part14	*part14	*part13	*part13	*part12	*part12	*part11	*part11	*part10	*part10	*part10	*part9	*part9	*part8	*part8	*part7	*part6	*part6	*part5	*part5	*part4	*part3	*part2	*part1
*staff15	*	*staff14	*	*staff13	*	*staff12	*	*staff11	*staff11	*staff10	*staff10	*	*staff9	*staff9	*staff8	*staff8	*staff7	*staff6	*	*staff5	*	*staff4	*staff3	*staff2	*staff1
*I"Organo	*	*I"Viola di Alto	*	*I"Violino Secundo	*	*I"Violino Primo.	*	*I"Basſo.	*	*I"Tenore	*	*	*I"Alto.	*	*I"Canto.	*	*I"Tympano	*I"Clarino 2.do in C	*	*I"Claryno Prymo in C	*	*I"Cornu Secundo in C	*I"Corno Prymo in C	*I"Oboe Secundo	*I"Oboe. Prima
*I'org	*	*I'a-vla	*	*I'vl 2	*	*I'vl 1	*	*I'B	*	*I'T	*	*	*I'A	*	*I'S	*	*I'timp	*I'clno 2 in C	*	*I'clno 1 in C	*	*I'cor 2 in C	*I'cor 1 in C	*I'ob 2	*I'ob 1
*Iorgan	*	*Iviola	*	*Ivioln	*	*Ivioln	*	*Ibass	*	*Itenor	*	*	*Ialto	*	*Isoprn	*	*Itimpa	*Itromp	*	*Itromp	*	*Icor	*Icor	*Ioboe	*Ioboe
*ICklav	*	*ICstr	*	*ICstr	*	*ICstr	*	*ICvox	*	*ICvox	*	*	*ICvox	*	*ICvox	*	*ICidio	*ICbras	*	*ICbras	*	*ICbras	*ICbras	*ICww	*ICww
*IGcont	*	*	*	*	*	*	*	*IGcoro	*	*IGcoro	*	*	*IGcoro	*	*IGcoro	*	*	*	*	*	*	*	*	*	*
*clefF4	*	*clefC3	*	*clefG2	*	*clefG2	*	*clefF4	*	*clefC4	*	*	*clefC3	*	*clefC1	*	*	*clefG2	*	*clefG2	*	*clefG2	*clefG2	*clefG2	*clefG2
*	*	*	*	*	*	*	*	*	*	*	*	*	*	*	*	*	*	*	*	*	*	*Trd0c0	*Trd0c0	*	*
*k[]	*	*k[]	*	*k[]	*	*k[]	*	*k[]	*	*k[]	*	*	*k[]	*	*k[]	*	*	*k[]	*	*k[]	*	*k[]	*k[]	*k[]	*k[]
*C:	*	*C:	*	*C:	*	*C:	*	*C:	*	*C:	*	*	*C:	*	*C:	*	*	*C:	*	*C:	*	*C:	*C:	*C:	*C:
*M4/4	*	*M4/4	*	*M4/4	*	*M4/4	*	*M4/4	*	*M4/4	*	*	*M4/4	*	*M4/4	*	*	*M4/4	*	*M4/4	*	*M4/4	*M4/4	*M4/4	*M4/4
*met(c)	*	*met(c)	*	*met(c)	*	*met(c)	*	*met(c)	*	*met(c)	*	*	*met(c)	*	*met(c)	*	*	*met(c)	*	*met(c)	*	*met(c)	*met(c)	*met(c)	*met(c)
*	*	*	*	*	*	*	*	*	*	*	*	*	*	*	*	*	*	*	*	*	*	*	*all\right	*	*
=1	=1	=1	=1	=1	=1	=1	=1	=1	=1	=1	=1	=1	=1	=1	=1	=1	=1	=1	=1	=1	=1	=1	=1	=1	=1
!LO:TX:a:i:t=Tutti	!	!	!	!	!	!LO:TX:a:i:t=Tutti	!	!	!	!	!	!	!	!	!	!	!	!	!	!	!	!	!	!	!
!LO:TX:a:Bi:t=allo	!	!LO:TX:a:Bi:t=Allo	!LO:DY:t=for.	!LO:TX:a:Bi:t=allo	!	!LO:TX:a:Bi:t=Allo.	!LO:DY:a:t=for&colon;	!LO:TX:a:Bi:t=allo&colon;	!	!LO:TX:a:Bi:t=allo	!	!LO:DY:a:t=for&colon;	!	!	!	!	!LO:TX:t=P:problem:zgodnie z RISM "timp missing"	!LO:TX:a:Bi:t=allo	!LO:DY:a:t=for&colon;	!LO:TX:a:Bi:t=allo	!LO:DY:a:t=ffor.	!LO:TX:a:Bi:t=allo	!LO:TX:a:Bi:t=allo	!LO:TX:a:Bi:t=allo	!LO:TX:a:Bi:t=allo
4C/	.	4c\	f	4e 4G/	.	4cc 4e\	f	4C/	Cre-	4G/	Cre-	f	4e\	Cre-	4cc\	Cre-	1ryy	4e/	f	4cc\	ff	4cc\	4ee\	4g/	4cc\
4C/	.	4c\	.	4e 4G/	.	4cc 4e\	.	4C/	-do	4G/	-do	.	4e\	-do	4cc\	-do	.	4e/	.	4cc\	.	4cc\	4ee\	4g/	4cc\
2r	.	2r	.	2r	.	16b\LL	.	2r	.	2r	.	.	2r	.	2r	.	.	2r	.	2r	.	2r	2r	2r	2r
.	.	.	.	.	.	16cc\	.	.	.	.	.	.	.	.	.	.	.	.	.	.	.	.	.	.	.
.	.	.	.	.	.	16aa\	.	.	.	.	.	.	.	.	.	.	.	.	.	.	.	.	.	.	.
.	.	.	.	.	.	16gg\JJ	.	.	.	.	.	.	.	.	.	.	.	.	.	.	.	.	.	.	.
.	.	.	.	.	.	16ff\LL	.	.	.	.	.	.	.	.	.	.	.	.	.	.	.	.	.	.	.
.	.	.	.	.	.	16ee\	.	.	.	.	.	.	.	.	.	.	.	.	.	.	.	.	.	.	.
.	.	.	.	.	.	16dd\	.	.	.	.	.	.	.	.	.	.	.	.	.	.	.	.	.	.	.
.	.	.	.	.	.	16cc\JJ	.	.	.	.	.	.	.	.	.	.	.	.	.	.	.	.	.	.	.
=2	=2	=2	=2	=2	=2	=2	=2	=2	=2	=2	=2	=2	=2	=2	=2	=2	=2	=2	=2	=2	=2	=2	=2	=2	=2
*	*	*	*	*	*	*	*	*	*ij	*	*	*	*	*ij	*	*	*	*	*	*	*	*	*	*	*
4D/	6	4d\	.	4f 4G/	.	4b\	.	4D/	Cre-	4G/	Cre-	.	4f\	Cre-	4b\	cre-	1ryy	4g/	.	4g/	.	4g/	4dd\	4b\	4gg\
4D/	.	4d\	.	4f 4G/	.	4b\	.	4D/	-do	4G/	-do	.	4f\	-do	4b\	-do	.	4g/	.	4g/	.	4g/	4dd\	4b\	4gg\
*	*	*	*	*	*	*	*	*	*Xij	*	*	*	*	*Xij	*	*	*	*	*	*	*	*	*	*	*
2r	.	2r	.	2r	.	16b\LL	.	2r	.	2r	.	.	2r	.	2r	.	.	2r	.	2r	.	2r	2r	2r	2r
.	.	.	.	.	.	16dd\	.	.	.	.	.	.	.	.	.	.	.	.	.	.	.	.	.	.	.
.	.	.	.	.	.	16gg\	.	.	.	.	.	.	.	.	.	.	.	.	.	.	.	.	.	.	.
.	.	.	.	.	.	16ff\JJ	.	.	.	.	.	.	.	.	.	.	.	.	.	.	.	.	.	.	.
.	.	.	.	.	.	16ee\LL	.	.	.	.	.	.	.	.	.	.	.	.	.	.	.	.	.	.	.
.	.	.	.	.	.	16dd\	.	.	.	.	.	.	.	.	.	.	.	.	.	.	.	.	.	.	.
.	.	.	.	.	.	16cc\	.	.	.	.	.	.	.	.	.	.	.	.	.	.	.	.	.	.	.
.	.	.	.	.	.	16b\JJ	.	.	.	.	.	.	.	.	.	.	.	.	.	.	.	.	.	.	.
=3	=3	=3	=3	=3	=3	=3	=3	=3	=3	=3	=3	=3	=3	=3	=3	=3	=3	=3	=3	=3	=3	=3	=3	=3	=3
*	*	*2\right	*	*	*	*	*	*	*	*	*	*	*	*	*	*	*	*	*	*2\right	*	*	*2\right	*	*
*	*	*tremolo	*	*tremolo	*	*	*	*	*	*	*	*	*	*	*	*	*	*tremolo	*	*tremolo	*	*tremolo	*tremolo	*	*
8C/L	.	8g\L	.	16e/LL	.	4.cc\	.	4C/	Cre-	4G/	Cre-	.	4e\	cre-	4cc\	cre-	1ryy	8c/L	.	8cc\L	.	8c/L	8cc\L	2g/	4.cc\
.	.	.	.	16e/	.	.	.	.	.	.	.	.	.	.	.	.	.	.	.	.	.	.	.	.	.
8C/	.	8g\	.	16e/	.	.	.	.	.	.	.	.	.	.	.	.	.	8c/	.	8cc\	.	8c/	8cc\	.	.
.	.	.	.	16e/JJ	.	.	.	.	.	.	.	.	.	.	.	.	.	.	.	.	.	.	.	.	.
8C/	.	8g\	.	16g/LL	.	.	.	8C/	-do	8G/	-do	.	8e\	-do	8cc\	-do	.	8c/	.	8cc\	.	8c/	8cc\	.	.
.	.	.	.	16g/	.	.	.	.	.	.	.	.	.	.	.	.	.	.	.	.	.	.	.	.	.
8C/J	.	8g\J	.	16g/	.	16dd\LL	.	8C/	in	8c\	in	.	16f\LL	in	16dd\LL	in	.	8c/J	.	8cc\J	.	8c/J	8cc\J	.	16dd\LL
.	.	.	.	16g/JJ	.	16ee\JJ	.	.	.	.	.	.	16g\JJ	.	16ee\JJ	.	.	.	.	.	.	.	.	.	16ee\JJ
*	*	*	*	*	*	*2\right	*	*	*	*	*	*	*	*	*	*	*	*	*	*	*	*	*	*	*
*tremolo	*	*	*	*	*	*tremolo	*	*	*	*	*	*	*	*	*	*	*	*	*	*	*	*	*	*	*
8C/L	6 4	8f\L	.	16a/LL	.	8ff\L	.	8C/	u-	8c\	u-	.	8a\	u-	8ff\	u-	.	8c/L	.	8cc\L	.	8c/L	8cc\L	8a/L	8ff\L
.	.	.	.	16a/	.	.	.	.	.	.	.	.	.	.	.	.	.	.	.	.	.	.	.	.	.
8C/	.	8f\	.	16a/	.	8ff\	.	8C/	-num	8c\	-num	.	8a\	-num	8ff\	-num	.	8c/	.	8cc\	.	8c/	8cc\	8a/	8ff\
.	.	.	.	16a/	.	.	.	.	.	.	.	.	.	.	.	.	.	.	.	.	.	.	.	.	.
8C/	.	8f\	.	16a/	.	8ff\	.	4C/	De-	4c\	De-	.	4a\	De-	4ff\	De-	.	8c/	.	8cc\	.	8c/	8cc\	8a/	8ff\
.	.	.	.	16a/	.	.	.	.	.	.	.	.	.	.	.	.	.	.	.	.	.	.	.	.	.
8C/J	.	8f\J	.	16a/	.	8ff\J	.	.	.	.	.	.	.	.	.	.	.	8c/J	.	8cc\J	.	8c/J	8cc\J	8a/J	8ff\J
.	.	.	.	16a/JJ	.	.	.	.	.	.	.	.	.	.	.	.	.	.	.	.	.	.	.	.	.
*	*	*	*	*	*	*Xtremolo	*	*	*	*	*	*	*	*	*	*	*	*	*	*	*	*	*	*	*
=4	=4	=4	=4	=4	=4	=4	=4	=4	=4	=4	=4	=4	=4	=4	=4	=4	=4	=4	=4	=4	=4	=4	=4	=4	=4
*	*	*	*	*	*	*	*	*	*	*	*	*	*	*	*	*	*	*	*	*	*	*	*	*tremolo	*
8C/L	5_ 3_	8e\L	.	16g/LL	.	4.ee\	.	8C/	-um	8c\	-um	.	8g\	-um	8ee\	-um	1ryy	8c/L	.	8cc\L	.	8c/L	8cc\L	8g/L	4.ee\
.	.	.	.	16g/	.	.	.	.	.	.	.	.	.	.	.	.	.	.	.	.	.	.	.	.	.
8C/	.	8e\	.	16g/	.	.	.	8C/	Pa-	8c\	Pa-	.	8g\	Pa-	8ee\	Pa-	.	8c/	.	8cc\	.	8c/	8cc\	8g/	.
.	.	.	.	16g/	.	.	.	.	.	.	.	.	.	.	.	.	.	.	.	.	.	.	.	.	.
8C/	.	8e\	.	16g/	.	.	.	8C/	-trem	8c\	-trem	.	8g\	-trem	8ee\	-trem	.	8c/	.	8cc\	.	8c/	8cc\	8g/	.
.	.	.	.	16g/	.	.	.	.	.	.	.	.	.	.	.	.	.	.	.	.	.	.	.	.	.
8C/J	.	8e\J	.	16g/	.	16ff\LL	.	8C/	om-	8c\	om-	.	8g\	om-	8ee\	om-	.	8c/J	.	8cc\J	.	8c/J	8cc\J	8g/J	16ff\LL
.	.	.	.	16g/JJ	.	16gg\JJ	.	.	.	.	.	.	.	.	.	.	.	.	.	.	.	.	.	.	16gg\JJ
*	*	*	*	*	*	*	*	*	*	*	*	*	*	*	*	*	*	*	*	*	*	*	*	*	*2\right
*	*	*	*	*	*	*tremolo	*	*	*	*	*	*	*	*	*	*	*	*	*	*	*	*	*	*Xtremolo	*tremolo
!	!	!	!	!	!	!	!	!	!	!LO:LB:g=original	!	!	!	!	!LO:LB:g=original	!	!	!	!	!	!	!	!	!LO:TX:t=P:problem:mixed beam	!
8C/L	6 4	8c\L	.	16f/LL	.	8aa\L	.	8C/	-ni-	8c\	-ni-	.	8a\	-ni-	8ff\	-ni-	.	8c/L	.	8cc\L	.	8c/L	8cc\L	8f/L	8aa\L
.	.	.	.	16f/	.	.	.	.	.	.	.	.	.	.	.	.	.	.	.	.	.	.	.	.	.
8C/	.	8c\	.	16f/	.	8aa\	.	8C/	-po-	8c\	-po-	.	8a\	-po-	8ff\	-po-	.	8c/	.	8cc\	.	8c/	8cc\	8ff\	8aa\
.	.	.	.	16f/	.	.	.	.	.	.	.	.	.	.	.	.	.	.	.	.	.	.	.	.	.
8C/	.	8c\	.	16f/	.	8aa\	.	4C/	-ten-	4c\	-ten-	.	4a\	-ten-	4ff\	-ten-	.	8c/	.	8cc\	.	8c/	8cc\	8ff\	8aa\
.	.	.	.	16f/	.	.	.	.	.	.	.	.	.	.	.	.	.	.	.	.	.	.	.	.	.
8C/J	.	8c\J	.	16f/	.	8aa\J	.	.	.	.	.	.	.	.	.	.	.	8c/J	.	8cc\J	.	8c/J	8cc\J	8ff\J	8aa\J
.	.	.	.	16f/JJ	.	.	.	.	.	.	.	.	.	.	.	.	.	.	.	.	.	.	.	.	.
*Xtremolo	*	*	*	*	*	*Xtremolo	*	*	*	*	*	*	*	*	*	*	*	*	*	*	*	*	*	*	*Xtremolo
!	!	!	!	!	!	!	!	!LO:LB:g=original	!	!	!	!	!LO:LB:g=original	!	!	!	!	!	!	!	!	!	!	!	!
=5	=5	=5	=5	=5	=5	=5	=5	=5	=5	=5	=5	=5	=5	=5	=5	=5	=5	=5	=5	=5	=5	=5	=5	=5	=5
*	*	*	*	*	*	*	*	*	*	*	*	*	*	*	*	*	*	*	*	*	*	*	*	*2\right	*
!LO:TX:t=P:problem:mixed beam	!	!	!	!	!	!	!	!	!	!	!	!	!	!	!	!	!	!	!	!	!	!	!	!	!
8C/L	5_ 3_	8c\L	.	16e/LL	.	8.gg\L	.	4C/	-tem	4.c\	-tem	.	4.g\	-tem	4.ee\	-tem	1ryy	8c/L	.	8cc\L	.	8c/L	8cc\L	2ee\	2gg\
.	.	.	.	16e/	.	.	.	.	.	.	.	.	.	.	.	.	.	.	.	.	.	.	.	.	.
8c\	.	8c\	.	16e/	.	.	.	.	.	.	.	.	.	.	.	.	.	8c/	.	8cc\	.	8c/	8cc\	.	.
.	.	.	.	16e/	.	32aa\LL	.	.	.	.	.	.	.	.	.	.	.	.	.	.	.	.	.	.	.
.	.	.	.	.	.	32bb\JJJ	.	.	.	.	.	.	.	.	.	.	.	.	.	.	.	.	.	.	.
8c\	.	8c\	.	16e/	.	16ccc\LL	.	4c\	fa-	.	.	.	.	.	.	.	.	8c/	.	8cc\	.	8c/	8cc\	.	.
.	.	.	.	16e/	.	16gg\	.	.	.	.	.	.	.	.	.	.	.	.	.	.	.	.	.	.	.
8c\J	.	8c\J	.	16e/	.	16ee\	.	.	.	8c\	fa-	.	8g\	fa-	8ee\	fa-	.	8c/J	.	8cc\J	.	8c/J	8cc\J	.	.
.	.	.	.	16e/JJ	.	16cc\JJ	.	.	.	.	.	.	.	.	.	.	.	.	.	.	.	.	.	.	.
*2\right	*	*	*	*	*	*	*	*	*	*	*	*	*	*	*	*	*	*	*	*	*	*	*	*	*
*tremolo	*	*	*	*	*	*tremolo	*	*	*	*	*	*	*	*	*	*	*	*	*	*	*	*	*	*	*
8c\L	6 4	8c\L	.	16a/LL	.	8ff\L	.	4.c\	-cto-	4.c\	-cto-	.	4.a\	-cto-	4.ff\	-cto-	.	8c/L	.	8cc\L	.	8c/L	8cc\L	2a/	2ff\
.	.	.	.	16a/	.	.	.	.	.	.	.	.	.	.	.	.	.	.	.	.	.	.	.	.	.
8c\	.	8c\	.	16a/	.	8ff\	.	.	.	.	.	.	.	.	.	.	.	8c/	.	8cc\	.	8c/	8cc\	.	.
.	.	.	.	16a/	.	.	.	.	.	.	.	.	.	.	.	.	.	.	.	.	.	.	.	.	.
8c\	.	8c\	.	16a/	.	8ff\	.	.	.	.	.	.	.	.	.	.	.	8c/	.	8cc\	.	8c/	8cc\	.	.
.	.	.	.	16a/	.	.	.	.	.	.	.	.	.	.	.	.	.	.	.	.	.	.	.	.	.
8c\J	.	8c\J	.	16a/	.	8ff\J	.	8c\	-rem	8c\	-rem	.	8a\	-rem	8ff\	-rem	.	8c/J	.	8cc\J	.	8c/J	8cc\J	.	.
.	.	.	.	16a/JJ	.	.	.	.	.	.	.	.	.	.	.	.	.	.	.	.	.	.	.	.	.
*	*	*	*	*	*	*Xtremolo	*	*	*	*	*	*	*	*	*	*	*	*	*	*	*	*	*	*	*
!	!	!	!	!	!	!LO:LB:g=original	!	!	!	!	!	!	!	!	!	!	!	!	!	!	!	!	!	!	!
=6	=6	=6	=6	=6	=6	=6	=6	=6	=6	=6	=6	=6	=6	=6	=6	=6	=6	=6	=6	=6	=6	=6	=6	=6	=6
8c\L	5 3	8c\L	.	16g/LL	.	8ee\L	.	4c\	cae-	4c\	cae-	.	4g\	cae-	4ee\	cae-	1ryy	8c/L	.	8cc\L	.	8c/L	8cc\L	4g/	4ee\
.	.	.	.	16g/	.	.	.	.	.	.	.	.	.	.	.	.	.	.	.	.	.	.	.	.	.
8c\	.	8c\	.	16g/	.	8ee\	.	.	.	.	.	.	.	.	.	.	.	8c/	.	8cc\	.	8c/	8cc\	.	.
.	.	.	.	16g/JJ	.	.	.	.	.	.	.	.	.	.	.	.	.	.	.	.	.	.	.	.	.
8c\	6_ 4_	8c\	.	16f/LL	.	8aa\	.	8c\	-li	8c\	-li	.	8a\	-li	8ff\	-li	.	8c/	.	8cc\	.	8c/	8cc\	4ff\	4aa\
.	.	.	.	16f/	.	.	.	.	.	.	.	.	.	.	.	.	.	.	.	.	.	.	.	.	.
8c\J	.	8c\J	.	16f/	.	8aa\J	.	8c\	et	8c\	et	.	8a\	et	8ff\	et	.	8c/J	.	8cc\J	.	8c/J	8cc\J	.	.
.	.	.	.	16f/JJ	.	.	.	.	.	.	.	.	.	.	.	.	.	.	.	.	.	.	.	.	.
*	*	*	*	*	*	*	*	*2\right	*	*	*	*	*2\right	*	*	*	*	*Xtremolo	*	*Xtremolo	*	*Xtremolo	*Xtremolo	*	*
8c\L	.	8c\L	.	16e/LL	.	8gg\L	.	2c\	ter-	(4c\	ter-	.	2g\	ter-	(4ee\	ter-	.	8c/L	.	8cc\L	.	8c/L	8cc\L	4ee\	4gg\
.	.	.	.	16e/	.	.	.	.	.	.	.	.	.	.	.	.	.	.	.	.	.	.	.	.	.
8c\	.	8c\	.	16e/	.	8gg\	.	.	.	.	.	.	.	.	.	.	.	8c/	.	8cc\	.	8c/	8cc\	.	.
.	.	.	.	16e/JJ	.	.	.	.	.	.	.	.	.	.	.	.	.	.	.	.	.	.	.	.	.
8c\	.	8c\	.	16f/LL	.	8bb\	.	.	.	4B\)	.	.	.	.	4dd\)	.	.	8g/	.	8dd\	.	8g/	8dd\	4ff\	4bb\
.	.	.	.	16f/	.	.	.	.	.	.	.	.	.	.	.	.	.	.	.	.	.	.	.	.	.
8c\J	.	8c\J	.	16f/	.	8bb\J	.	.	.	.	.	.	.	.	.	.	.	8g/J	.	8dd\J	.	8g/J	8dd\J	.	.
.	.	.	.	16f/JJ	.	.	.	.	.	.	.	.	.	.	.	.	.	.	.	.	.	.	.	.	.
*Xtremolo	*	*Xtremolo	*	*Xtremolo	*	*	*	*	*	*	*	*	*	*	*	*	*	*	*	*	*	*	*	*	*
=7	=7	=7	=7	=7	=7	=7	=7	=7	=7	=7	=7	=7	=7	=7	=7	=7	=7	=7	=7	=7	=7	=7	=7	=7	=7
4c\	x	4c\	.	4e/	.	16ccc\LL	.	4c\	-rae	4c\	-rae	.	4g\	-rae	4ee\	-rae	1ryy	4e/	.	4cc\	.	4cc\	4ee\	4ee\	4ccc\
.	.	.	.	.	.	16bb\	.	.	.	.	.	.	.	.	.	.	.	.	.	.	.	.	.	.	.
.	.	.	.	.	.	16aa\	.	.	.	.	.	.	.	.	.	.	.	.	.	.	.	.	.	.	.
.	.	.	.	.	.	16gg\JJ	.	.	.	.	.	.	.	.	.	.	.	.	.	.	.	.	.	.	.
8r	.	8r	.	8r	.	16ff\LL	.	4r	.	4r	.	.	4r	.	4r	.	.	8r	.	8r	.	8r	8r	8r	8r
.	.	.	.	.	.	16ee\	.	.	.	.	.	.	.	.	.	.	.	.	.	.	.	.	.	.	.
8c\	.	8c\	.	8e/	.	16dd\	.	.	.	.	.	.	.	.	.	.	.	8e/	.	8cc\	.	8cc\	8ee\	8ee\	8gg\
.	.	.	.	.	.	16cc\JJ	.	.	.	.	.	.	.	.	.	.	.	.	.	.	.	.	.	.	.
*	*	*	*	*tremolo	*	*	*	*	*	*	*	*	*	*	*	*	*	*	*	*	*	*	*	*	*
8B\L	6_	8B/L	.	(16d/LL	.	16ff#X\LL	.	4.G\	vi-	4.B\	vi-	.	4.g\	vi-	4.dd\	vi-	.	2g/	.	2dd\	.	2g/	2dd\	2dd\	2gg\
.	.	.	.	16g/	.	16gg\	.	.	.	.	.	.	.	.	.	.	.	.	.	.	.	.	.	.	.
8A\	.	8G/	.	16d/	.	16aa\	.	.	.	.	.	.	.	.	.	.	.	.	.	.	.	.	.	.	.
.	.	.	.	16g/	.	16gg\JJ	.	.	.	.	.	.	.	.	.	.	.	.	.	.	.	.	.	.	.
8B\	.	8B/	.	16d/	.	16dd\LL	.	.	.	.	.	.	.	.	.	.	.	.	.	.	.	.	.	.	.
.	.	.	.	16g/	.	16ee\	.	.	.	.	.	.	.	.	.	.	.	.	.	.	.	.	.	.	.
8G\J	.	8G/J	.	16d/	.	16ffn\	.	8G\	-ſi-	8B\	-ſi-	.	8g\	-ſi-	8dd\	-si-	.	.	.	.	.	.	.	.	.
.	.	.	.	16g/JJ)	.	16dd\JJ	.	.	.	.	.	.	.	.	.	.	.	.	.	.	.	.	.	.	.
!LO:LB:g=original	!	!	!	!	!	!	!	!	!	!	!	!	!	!	!	!	!	!	!	!	!	!	!LO:LB:g=original	!LO:LB:g=original	!LO:LB:g=original
=8	=8	=8	=8	=8	=8	=8	=8	=8	=8	=8	=8	=8	=8	=8	=8	=8	=8	=8	=8	=8	=8	=8	=8	=8	=8
!LO:TX:t=P:problem:mixed beam	!	!LO:TX:t=P:problem:mixed beam	!	!	!	!	!	!	!	!	!	!	!	!	!	!	!	!LO:TX:t=P:problem:brak taktu nr 8	!	!	!	!	!	!	!
8c\L	x	8c\L	.	(16e/LL	.	16ee\LL	.	4c\	-bi-	4c\	-bi-	.	4g\	-bi-	4ee\	-bi-	1ryy	1ryy	.	4ee\	.	4cc\	4ee\	4ee\	4gg\
.	.	.	.	16g/	.	16gg\	.	.	.	.	.	.	.	.	.	.	.	.	.	.	.	.	.	.	.
8C/J	.	8C/J	.	16e/	.	16aa\	.	.	.	.	.	.	.	.	.	.	.	.	.	.	.	.	.	.	.
.	.	.	.	16g/	.	16gg\JJ	.	.	.	.	.	.	.	.	.	.	.	.	.	.	.	.	.	.	.
8r	.	8r	.	16e/	.	16ccc\LL	.	8C/	-li-	8c\	-li-	.	8g\	-li-	8ee\	-li-	.	.	.	8r	.	8r	8r	8r	8r
.	.	.	.	16g/	.	16gg\	.	.	.	.	.	.	.	.	.	.	.	.	.	.	.	.	.	.	.
8c\	.	8c\	.	16e/	.	16ee\	.	8C/	-um	8c\	-um	.	8g\	-um	8ee\	-um	.	.	.	8cc\	.	8cc\	8ee\	8ee\	8gg\
.	.	.	.	16g/JJ)	.	16cc\JJ	.	.	.	.	.	.	.	.	.	.	.	.	.	.	.	.	.	.	.
!	!	!LO:LB:g=original	!	!	!	!	!	!	!	!	!	!	!	!	!LO:LB:g=original	!	!	!	!	!	!	!	!	!	!
8B\L	6_	8B/L	.	(16d/LL	.	16ff#X\LL	.	4.G\	om-	4.B\	om-	.	4.g\	om-	4.dd\	om-	.	.	.	2dd\	.	2g/	2dd\	2dd\	2gg\
.	.	.	.	16g/	.	16gg\	.	.	.	.	.	.	.	.	.	.	.	.	.	.	.	.	.	.	.
8A\	.	8G/	.	16d/	.	16aa\	.	.	.	.	.	.	.	.	.	.	.	.	.	.	.	.	.	.	.
.	.	.	.	16g/	.	16gg\JJ	.	.	.	.	.	.	.	.	.	.	.	.	.	.	.	.	.	.	.
8B\	.	8B/	.	16d/	.	16dd\LL	.	.	.	.	.	.	.	.	.	.	.	.	.	.	.	.	.	.	.
.	.	.	.	16g/	.	16ee\	.	.	.	.	.	.	.	.	.	.	.	.	.	.	.	.	.	.	.
8G\J	.	8G/J	.	16d/	.	16ffn\	.	8G\	-ni-	8B\	-ni-	.	8g\	-ni-	8dd\	-ni-	.	.	.	.	.	.	.	.	.
.	.	.	.	16g/JJ)	.	16dd\JJ	.	.	.	.	.	.	.	.	.	.	.	.	.	.	.	.	.	.	.
!	!	!	!	!LO:LB:g=original	!	!	!	!	!	!LO:LB:g=original	!	!	!	!	!	!	!	!	!	!	!	!LO:LB:g=original	!	!	!
=9	=9	=9	=9	=9	=9	=9	=9	=9	=9	=9	=9	=9	=9	=9	=9	=9	=9	=9	=9	=9	=9	=9	=9	=9	=9
*tremolo	*	*tremolo	*	*	*	*	*	*	*	*	*	*	*	*	*	*	*	*	*	*	*	*	*	*	*
8c\L	x	8c\L	.	16e/LL	.	16ee\LL	.	4C/	-um	4c\	-um	.	4g\	-um	4ee\	-um	1ryy	4cc\	.	4ee\	.	4cc\	4ee\	2ee\	2gg\
.	.	.	.	16g/	.	16dd#X\	.	.	.	.	.	.	.	.	.	.	.	.	.	.	.	.	.	.	.
8c\	.	8c\	.	16e/	.	16ff\	.	.	.	.	.	.	.	.	.	.	.	.	.	.	.	.	.	.	.
.	.	.	.	16g/	.	16ee\JJ	.	.	.	.	.	.	.	.	.	.	.	.	.	.	.	.	.	.	.
8c\	.	8c\	.	16e/	.	16dd#\LL	.	8c\	et	8c\	et	.	8g\	et	8ee\	et	.	4r	.	4r	.	8r	8r	.	.
.	.	.	.	16g/	.	16ee\	.	.	.	.	.	.	.	.	.	.	.	.	.	.	.	.	.	.	.
8c\J	.	8c\J	.	16e/	.	16gg\	.	8c\	in-	8c\	in-	.	8g\	in-	8ee\	in	.	.	.	.	.	8cc\	8ee\	.	.
.	.	.	.	16g/JJ	.	16ee\JJ	.	.	.	.	.	.	.	.	.	.	.	.	.	.	.	.	.	.	.
*	*	*	*	*	*	*	*	*	*	*	*	*	*	*	*	*	*	*	*	*	*	*2\right	*	*	*
!	!	!	!	!	!	!LO:LB:g=original	!	!LO:PB:g=original	!	!	!	!	!LO:LB:g=original	!	!	!	!	!	!	!	!	!	!	!	!
8A\L	6 5	8c\L	.	16f#X/LL	.	16ccc\LL	.	4.A\	-vi-	4.c\	-vi-	.	4.f#X\	-vi-	4.ee\	u-	.	2r	.	2r	.	2cc\	2ee\	2cc\	2ee\
.	.	.	.	16f#/	.	16bb\	.	.	.	.	.	.	.	.	.	.	.	.	.	.	.	.	.	.	.
8A\	.	8c\	.	16f#/	.	16aa\	.	.	.	.	.	.	.	.	.	.	.	.	.	.	.	.	.	.	.
.	.	.	.	16f#/	.	16gg\JJ	.	.	.	.	.	.	.	.	.	.	.	.	.	.	.	.	.	.	.
8A\	.	8c\	.	16f#/	.	16ff#X\LL	.	.	.	.	.	.	.	.	.	.	.	.	.	.	.	.	.	.	.
.	.	.	.	16f#/	.	16ee\	.	.	.	.	.	.	.	.	.	.	.	.	.	.	.	.	.	.	.
!	!	!	!	!	!	!LO:SIC:v:s=16ddn\	!	!	!	!	!	!	!	!	!	!	!	!	!	!	!	!	!	!	!
8A\J	.	8c\J	.	16f#/	.	16dd#\	.	8A\	-ſi-	8c\	-ſi-	.	8f#\	-ſi-	8ee\	-num	.	.	.	.	.	.	.	.	.
.	.	.	.	16f#/JJ	.	16cc\JJ	.	.	.	.	.	.	.	.	.	.	.	.	.	.	.	.	.	.	.
!	!	!	!	!	!	!	!	!	!	!	!	!	!	!	!	!	!	!LO:LB:g=original	!	!LO:LB:g=original	!	!	!	!	!
=10	=10	=10	=10	=10	=10	=10	=10	=10	=10	=10	=10	=10	=10	=10	=10	=10	=10	=10	=10	=10	=10	=10	=10	=10	=10
!	!	!	!	!LO:SIC:v:s=16f#/LL	!	!	!	!	!	!	!	!	!LO:SIC:v:s=4f#\	!	!	!	!	!LO:TX:a:t=2.	!	!LO:TX:a:t=2	!	!	!	!	!
8B\L	#5	8B/L	.	16f/LL	.	16cc#X\LL	.	4B\	-bi-	4B\	-bi-	.	4f\	-bi-	4dd\	Do-	1ryy	0r	.	0r	.	2dd\	2dd\	2b\	2dd\
!	!	!	!	!LO:SIC:v:s=16f#/	!	!	!	!	!	!	!	!	!	!	!	!	!	!	!	!	!	!	!	!	!
.	.	.	.	16f/	.	16dd\	.	.	.	.	.	.	.	.	.	.	.	.	.	.	.	.	.	.	.
!	!	!	!	!LO:SIC:v:s=16f#/	!	!	!	!	!	!	!	!	!	!	!	!	!	!	!	!	!	!	!	!	!
8B\	.	8B/	.	16f/	.	16ee\	.	.	.	.	.	.	.	.	.	.	.	.	.	.	.	.	.	.	.
!	!	!	!	!LO:SIC:v:s=16f#/	!	!	!	!	!	!	!	!	!	!	!	!	!	!	!	!	!	!	!	!	!
.	.	.	.	16f/	.	16dd\JJ	.	.	.	.	.	.	.	.	.	.	.	.	.	.	.	.	.	.	.
!	!	!	!	!LO:SIC:v:s=16f#/	!	!	!	!	!	!	!	!	!LO:SIC:v:s=8f#\	!	!	!	!	!	!	!	!	!	!	!	!
8B\	.	8B/	.	16f/	.	16cc#\LL	.	8B\	-li-	8B\	-li-	.	8f\	-li-	8dd\	-mi-	.	.	.	.	.	.	.	.	.
!	!	!	!	!LO:SIC:v:s=16f#/	!	!	!	!	!	!	!	!	!	!	!	!	!	!	!	!	!	!	!	!	!
.	.	.	.	16f/	.	16dd\	.	.	.	.	.	.	.	.	.	.	.	.	.	.	.	.	.	.	.
!	!	!	!	!LO:SIC:v:s=16f#/	!	!	!	!	!	!	!	!	!LO:SIC:v:s=8f#\	!	!	!	!	!	!	!	!	!	!	!	!
8B\J	.	8B/J	.	16f/	.	16ff#X\	.	8B\	-um	8B\	-um	.	8f\	-um	8dd\	-num	.	.	.	.	.	.	.	.	.
!	!	!	!	!LO:SIC:v:s=16f#/JJ	!	!	!	!	!	!	!	!	!	!	!	!	!	!	!	!	!	!	!	!	!
.	.	.	.	16f/JJ	.	16dd\JJ	.	.	.	.	.	.	.	.	.	.	.	.	.	.	.	.	.	.	.
8G\L	6 5	8B/L	.	16e/LL	.	16bb\LL	.	4.G\	et	4.B\	et	.	4.e\	et	4.dd\	Je-	.	.	.	.	.	2g/	2dd\	2b\	2dd\
.	.	.	.	16e/	.	16aa\	.	.	.	.	.	.	.	.	.	.	.	.	.	.	.	.	.	.	.
8G\	.	8B/	.	16e/	.	16gg\	.	.	.	.	.	.	.	.	.	.	.	.	.	.	.	.	.	.	.
.	.	.	.	16e/	.	16ff#\JJ	.	.	.	.	.	.	.	.	.	.	.	.	.	.	.	.	.	.	.
8G\	.	8B/	.	16e/	.	16ee\LL	.	.	.	.	.	.	.	.	.	.	.	.	.	.	.	.	.	.	.
.	.	.	.	16e/	.	16dd\	.	.	.	.	.	.	.	.	.	.	.	.	.	.	.	.	.	.	.
!	!	!	!	!	!	!LO:SIC:v:s=16ccn\	!	!	!	!	!	!	!	!	!	!	!	!	!	!	!	!	!	!	!
8G\J	.	8B/J	.	16e/	.	16cc#\	.	8G\	in	8B\	in	.	8e\	in	8dd\	-sum	.	.	.	.	.	.	.	.	.
.	.	.	.	16e/JJ	.	16b\JJ	.	.	.	.	.	.	.	.	.	.	.	.	.	.	.	.	.	.	.
=11	=11	=11	=11	=11	=11	=11	=11	=11	=11	=11	=11	=11	=11	=11	=11	=11	=11	=11	=11	=11	=11	=11	=11	=11	=11
8A\L	.	8A/L	.	16e/LL	.	16b\LL	.	4A\	u-	4A\	u-	.	4e\	u-	4cc\	Chri-	1ryy	.	.	.	.	4cc\	4cc\	2a\	2cc\
.	.	.	.	16e/	.	16cc\	.	.	.	.	.	.	.	.	.	.	.	.	.	.	.	.	.	.	.
8A\	.	8A/	.	16e/	.	16dd\	.	.	.	.	.	.	.	.	.	.	.	.	.	.	.	.	.	.	.
.	.	.	.	16e/	.	16cc\JJ	.	.	.	.	.	.	.	.	.	.	.	.	.	.	.	.	.	.	.
8A\	.	8A/	.	16e/	.	16b\LL	.	4A\	-num	4A\	-num	.	4e\	-num	4cc\	-ſtum	.	.	.	.	.	4cc\	4ee\	.	.
.	.	.	.	16e/	.	16cc\	.	.	.	.	.	.	.	.	.	.	.	.	.	.	.	.	.	.	.
8A\J	.	8A/J	.	16e/	.	16ff#X\	.	.	.	.	.	.	.	.	.	.	.	.	.	.	.	.	.	.	.
.	.	.	.	16e/JJ	.	16gg\JJ	.	.	.	.	.	.	.	.	.	.	.	.	.	.	.	.	.	.	.
8F#X\L	6 5	8A/L	.	16d/LL	.	16aa\LL	.	4F#X\	Do-	4d\	Do-	.	4a\	Do-	4cc\	fi-	.	.	.	.	.	2dd\	2dd\	2cc\	2aa\
.	.	.	.	16d/	.	16gg\	.	.	.	.	.	.	.	.	.	.	.	.	.	.	.	.	.	.	.
8F#\	.	8A/	.	16d/	.	16ff#\	.	.	.	.	.	.	.	.	.	.	.	.	.	.	.	.	.	.	.
.	.	.	.	16d/	.	16ee\JJ	.	.	.	.	.	.	.	.	.	.	.	.	.	.	.	.	.	.	.
8F#\	.	8A/	.	16d/	.	16dd\LL	.	8F#\	-mi-	8d\	-mi-	.	8a\	-mi-	8cc\	-li-	.	.	.	.	.	.	.	.	.
.	.	.	.	16d/	.	16cc\	.	.	.	.	.	.	.	.	.	.	.	.	.	.	.	.	.	.	.
8F#\J	.	8A/J	.	16d/	.	16b\	.	8F#\	-num	8d\	-num	.	8a\	-num	8cc\	-um	.	.	.	.	.	.	.	.	.
.	.	.	.	16d/JJ	.	16a\JJ	.	.	.	.	.	.	.	.	.	.	.	.	.	.	.	.	.	.	.
*Xtremolo	*	*Xtremolo	*	*	*	*	*	*	*	*	*	*	*	*	*	*	*	*	*	*	*	*	*	*	*
=12	=12	=12	=12	=12	=12	=12	=12	=12	=12	=12	=12	=12	=12	=12	=12	=12	=12	=12	=12	=12	=12	=12	=12	=12	=12
!	!	!LO:TX:t=P:problem:mixed beam	!	!	!	!	!	!	!	!	!	!	!	!	!	!	!	!	!	!	!	!	!	!	!
4G\	.	8G/L	.	16d/LL	.	16b\LL	.	8G\	Je-	8d\	Je-	.	8g\L	Je-	8b\	De-	1ryy	4g/	.	4dd\	.	8g/L	8dd\L	4b\	4gg\
.	.	.	.	16b/	.	16dd\	.	.	.	.	.	.	.	.	.	.	.	.	.	.	.	.	.	.	.
.	.	8g\J	.	16d/	.	16ee\	.	8G\	-sum	8d\	-sum	.	8g\	-sum	8b\	-i	.	.	.	.	.	16g/L	16dd\L	.	.
.	.	.	.	16b/	.	16dd\JJ	.	.	.	.	.	.	.	.	.	.	.	.	.	.	.	16g/JJ	16dd\JJ	.	.
!	!	!	!	!	!	!	!	!	!	!	!	!	!	!	!LO:LB:g=original	!	!	!	!	!	!	!	!	!	!
8r	.	8r	.	16d/	.	16gg\LL	.	8G\	Chri-	8d\	Chri-	.	8g\	Chri-	8b\	u-	.	8r	.	8r	.	8g/L	8dd\L	8r	8r
.	.	.	.	16b/	.	16ff#X\	.	.	.	.	.	.	.	.	.	.	.	.	.	.	.	.	.	.	.
8G\	.	8g\	.	16d/	.	16ee\	.	8G\	-ſtum	8d\	-ſtum	.	8g	-ſtum	8b\	-ni	.	8g/	.	8dd\	.	8g/J	8dd\J	8b\	8dd\
.	.	.	.	16b/JJ	.	16dd\JJ	.	.	.	.	.	.	.	.	.	.	.	.	.	.	.	.	.	.	.
*	*	*	*	*	*	*	*	*	*	*	*	*	*	*	*	*	*	*2\right	*	*	*	*	*	*	*
*	*	*	*	*	*	*	*	*	*	*	*	*	*	*	*	*	*	*tremolo	*	*tremolo	*	*	*	*	*
!	!	!	!	!	!	!LO:LB:g=original	!	!	!	!LO:LB:g=original	!	!	!	!	!	!	!	!	!	!	!	!	!	!	!
8F#X\L	6 5	8f#X\L	.	16d/LL	.	16cc#X\LL	.	4F#X\	fi-	4d\	fi-	.	4a\	fi-	4cc\	ge-	.	8dd\L	.	8dd\L	.	2dd\	2dd\	2a\	2dd\
.	.	.	.	16a/	.	16dd\	.	.	.	.	.	.	.	.	.	.	.	.	.	.	.	.	.	.	.
8E\	.	8d\	.	16d/	.	16ee\	.	.	.	.	.	.	.	.	.	.	.	8dd\	.	8dd\	.	.	.	.	.
.	.	.	.	16a/	.	16dd\JJ	.	.	.	.	.	.	.	.	.	.	.	.	.	.	.	.	.	.	.
8F#\	.	8f#\	.	16d/	.	16a\LL	.	8D/	-li-	8d\	-li-	.	8a\	-li-	8cc\	-ni-	.	8dd\	.	8dd\	.	.	.	.	.
.	.	.	.	16a/	.	16b\	.	.	.	.	.	.	.	.	.	.	.	.	.	.	.	.	.	.	.
8D\J	.	8d\J	.	16d/	.	16ccn\	.	8D/	-um	8d\	-um	.	8a\	-um	8cc\	-tum	.	8dd\J	.	8dd\J	.	.	.	.	.
.	.	.	.	16a/JJ	.	16a\JJ	.	.	.	.	.	.	.	.	.	.	.	.	.	.	.	.	.	.	.
*	*	*	*	*	*	*	*	*	*	*	*	*	*	*	*	*	*	*Xtremolo	*	*Xtremolo	*	*	*	*	*
!	!	!	!	!	!	!	!	!LO:LB:g=original	!	!	!	!	!LO:LB:g=original	!	!	!	!	!	!	!	!	!	!	!	!
=13	=13	=13	=13	=13	=13	=13	=13	=13	=13	=13	=13	=13	=13	=13	=13	=13	=13	=13	=13	=13	=13	=13	=13	=13	=13
!	!	!LO:TX:t=P:problem:mixed beam	!	!	!	!	!	!	!	!	!	!	!	!	!	!	!	!	!	!	!	!	!	!	!
4G\	.	8g\L	.	16d/LL	.	16b\LL	.	8G\	De-	8d\	De-	.	8g\	De-	8b\	De-	1ryy	4g/	.	4dd\	.	4g/	4dd\	4b\	4dd\
.	.	.	.	16b/	.	16dd\	.	.	.	.	.	.	.	.	.	.	.	.	.	.	.	.	.	.	.
.	.	8G/J	.	16d/	.	16ee\	.	8G\	-i	8d\	-i	.	8g\	-i	8b\	-i	.	.	.	.	.	.	.	.	.
.	.	.	.	16b/	.	16dd\JJ	.	.	.	.	.	.	.	.	.	.	.	.	.	.	.	.	.	.	.
8r	.	8r	.	16d/	.	16gg\LL	.	8G\	u-	8d\	u-	.	8g\	u-	8b\	u-	.	8r	.	8ryy	.	8r	8r	8r	8r
.	.	.	.	16b/	.	16dd\	.	.	.	.	.	.	.	.	.	.	.	.	.	.	.	.	.	.	.
8G\	.	8g\	.	16d/	.	16b\	.	8G\	-ni	8d\	-ni	.	8g\	-ni	8b\	-ni	.	8g/	.	8dd\	.	8g/	8dd\	8b\	8dd\
.	.	.	.	16b/JJ	.	16g\JJ	.	.	.	.	.	.	.	.	.	.	.	.	.	.	.	.	.	.	.
*	*	*	*	*	*	*	*	*	*	*	*	*	*	*	*	*	*	*tremolo	*	*tremolo	*	*	*tremolo	*tremolo	*
8F#X\L	6 5	8f#X\L	.	16d/LL	.	16cc#X\LL	.	4D/	ge-	4d\	ge-	.	4a\	ge-	4cc\	ge-	.	8dd\L	.	8dd\L	.	2dd\	8dd\L	8a/L	2dd\
.	.	.	.	16a/	.	16dd\	.	.	.	.	.	.	.	.	.	.	.	.	.	.	.	.	.	.	.
8E\	.	8d\	.	16d/	.	16ee\	.	.	.	.	.	.	.	.	.	.	.	8dd\	.	8dd\	.	.	8dd\	8a/	.
.	.	.	.	16a/	.	16dd\JJ	.	.	.	.	.	.	.	.	.	.	.	.	.	.	.	.	.	.	.
8F#\	.	8f#\	.	16d/	.	16a\LL	.	8D/	-ni-	8d\	-ni-	.	8a\	-ni-	8cc\	-ni-	.	8dd\	.	8dd\	.	.	8dd\	8a/	.
.	.	.	.	16a/	.	16b\	.	.	.	.	.	.	.	.	.	.	.	.	.	.	.	.	.	.	.
8D\J	.	8d\J	.	16d/	.	16ccn\	.	8D/	-tum	8d\	-tum	.	8a\	-tum	8cc\	-tum	.	8dd\J	.	8dd\J	.	.	8dd\J	8a/J	.
.	.	.	.	16a/JJ	.	16a\JJ	.	.	.	.	.	.	.	.	.	.	.	.	.	.	.	.	.	.	.
*	*	*	*	*Xtremolo	*	*	*	*	*	*	*	*	*	*	*	*	*	*Xtremolo	*	*Xtremolo	*	*	*Xtremolo	*Xtremolo	*
=14	=14	=14	=14	=14	=14	=14	=14	=14	=14	=14	=14	=14	=14	=14	=14	=14	=14	=14	=14	=14	=14	=14	=14	=14	=14
*	*	*	*	*	*	*	*	*	*	*	*	*	*	*	*	*	*	*	*	*	*	*tremolo	*	*	*
8G\L	8_ 3	8g\L	.	8b\L	.	16b\LL	.	8G\	et	8d\	et	.	8g\	et	8b\	et	1ryy	8g/L	.	8g/L	.	8g/L	8dd\L	8b\L	8dd\L
.	.	.	.	.	.	16dd\	.	.	.	.	.	.	.	.	.	.	.	.	.	.	.	.	.	.	.
8A\	_ 3	8a\	.	8cc\	.	16cc\	.	8A\	ex	8c\	ex	.	8g\	ex	8cc\	ex	.	16g/L	.	16g/L	.	8g/	8cc\	8cc\	8gg\
.	.	.	.	.	.	16ee\JJ	.	.	.	.	.	.	.	.	.	.	.	16g/JJ	.	16g/JJ	.	.	.	.	.
8B\	_ 3	8b\	.	8dd\	.	16dd\LL	.	8B\	Pa-	8d\	Pa-	.	8g\	Pa-	8dd\	Pa-	.	8g/L	.	8g/L	.	8g/	8dd\	8dd\	8gg\
.	.	.	.	.	.	16gg\	.	.	.	.	.	.	.	.	.	.	.	.	.	.	.	.	.	.	.
8c\J	_ 3	8cc\J	.	8ee\J	.	16ee\	.	8c\	-tre	8c\	-tre	.	8g\	-tre	8ee\	-tre	.	8g/J	.	8g/J	.	8g/J	8ee\J	8ee\J	8gg\J
.	.	.	.	.	.	16gg\JJ	.	.	.	.	.	.	.	.	.	.	.	.	.	.	.	.	.	.	.
*	*	*	*	*	*	*	*	*	*	*	*	*	*	*	*	*	*	*tremolo	*	*tremolo	*	*	*	*	*tremolo
!	!	!	!	!	!	!	!	!	!	!	!	!	!	!	!	!	!	!	!	!	!	!	!LO:TX:a:t=d	!	!
8B\L	_ 3	8b\L	.	8dd\L	.	16dd\LL	.	8B\L	na-	(8d\L	na-	.	4g\	na-	8dd\L	na-	.	8g/L	.	8g/L	.	8g/L	8dd\L	8dd\L	8gg\L
.	.	.	.	.	.	16gg\	.	.	.	.	.	.	.	.	.	.	.	.	.	.	.	.	.	.	.
8c\	_ 3	8cc\	.	8ee\J	.	16ee\	.	8c\J	.	8c\J)	.	.	.	.	8ee\J	.	.	8g/	.	8g/	.	8g/	8ee\	8ee\	8gg\
.	.	.	.	.	.	16gg\JJ	.	.	.	.	.	.	.	.	.	.	.	.	.	.	.	.	.	.	.
8B\	_ 3	8b\	.	(16dd\LL	.	16dd\LL	.	8B\	.	4d\	-tum	.	4g\	-tum	4dd\	-tum	.	8g/	.	8g/	.	8g/	8dd\	8dd\	8gg\
.	.	.	.	16gg\	.	16gg\	.	.	.	.	.	.	.	.	.	.	.	.	.	.	.	.	.	.	.
8G\J	_ 3	8g\J	.	16dd\	.	16dd\	.	8G\	-tum	.	.	.	.	.	.	.	.	8g/J	.	8g/J	.	8g/J	8cc\J	8ff\J	8ggJ
.	.	.	.	16ffn\JJ)	.	16ffn\JJ	.	.	.	.	.	.	.	.	.	.	.	.	.	.	.	.	.	.	.
*	*	*	*	*	*	*	*	*	*	*	*	*	*	*	*	*	*	*Xtremolo	*	*Xtremolo	*	*Xtremolo	*	*	*
=15	=15	=15	=15	=15	=15	=15	=15	=15	=15	=15	=15	=15	=15	=15	=15	=15	=15	=15	=15	=15	=15	=15	=15	=15	=15
8c\L	3	8g\L	.	16ee\LL	.	16ee\LL	.	8c\L	an-	8c\L	an-	.	4.g\	an-	8ee\L	an-	1ryy	4g/	.	4g/	.	8cc\	8ee\	8ee\L	8gg\L
.	.	.	.	16gg\	.	16gg\	.	.	.	.	.	.	.	.	.	.	.	.	.	.	.	.	.	.	.
8B\	6 5	8g\	.	16dd\	.	16dd\	.	8B\J	.	8d\	.	.	.	.	8dd\	.	.	.	.	.	.	8r	8r	8ff\	8gg\
.	.	.	.	16ff\JJ	.	16ff\JJ	.	.	.	.	.	.	.	.	.	.	.	.	.	.	.	.	.	.	.
!	!	!	!	!	!	!LO:LB:g=original	!	!	!	!	!	!	!	!	!	!	!	!	!	!	!	!	!	!	!
8c\	3	8g\	.	16ee\LL	.	16ee\LL	.	8c\	.	8c\J	.	.	.	.	8ee\J	.	.	4r	.	4r	.	4r	4r	8ee\	8gg\
.	.	.	.	16gg\	.	16gg\	.	.	.	.	.	.	.	.	.	.	.	.	.	.	.	.	.	.	.
8d\J	6	8g\J	.	16dd\	.	16b\	.	8G\	-te	8d\	-te	.	8g\	-te	8dd\	-te	.	.	.	.	.	.	.	8b\J	8gg\J
.	.	.	.	16ff\JJ	.	16dd\JJ	.	.	.	.	.	.	.	.	.	.	.	.	.	.	.	.	.	.	.
*	*	*	*	*	*	*	*	*	*	*	*	*	*	*	*	*	*	*	*	*	*	*	*	*	*Xtremolo
!	!	!	!	!	!	!LO:TX:t=P:problem:mixed beam	!	!	!	!LO:LB:g=original	!	!	!	!	!LO:LB:g=original	!	!	!	!	!	!	!	!	!	!
8e\L	6	8g\L	.	16cc\LL	.	16cc\LL	.	8E\L	an-	8c\	an-	.	8g\L	om-	8cc\L	om-	.	2r	.	2r	.	2r	2r	8cc\L	8gg\L
.	.	.	.	16ee\	.	16ee\	.	.	.	.	.	.	.	.	.	.	.	.	.	.	.	.	.	.	.
8d\	4 2	8e\	.	16g#X\	.	16g#X/	.	8D\J	.	4e\	.	.	8g#X\	.	8b\	.	.	.	.	.	.	.	.	8b\	8ee\
.	.	.	.	16b\JJ	.	16b/JJ	.	.	.	.	.	.	.	.	.	.	.	.	.	.	.	.	.	.	.
!	!	!	!	!	!	!	!	!LO:LB:g=original	!	!	!	!	!	!	!	!	!	!	!	!	!	!	!	!	!
8c\	6\	8e\	.	16a\LL	.	16a\LL	.	8C/	.	.	.	.	8a\	.	8cc\	.	.	.	.	.	.	.	.	8cc\	8ee\
.	.	.	.	16cc\	.	16cc\	.	.	.	.	.	.	.	.	.	.	.	.	.	.	.	.	.	.	.
8B\J	6\	8e\J	.	16g#\	.	16g#X\	.	8BB/	-te	8e\	-te	.	8f\J	.	8b\J	.	.	.	.	.	.	.	.	8a\J	8ee\J
.	.	.	.	16b\JJ	.	16b\JJ	.	.	.	.	.	.	.	.	.	.	.	.	.	.	.	.	.	.	.
!LO:LB:g=original	!	!LO:LB:g=original	!	!LO:LB:g=original	!	!	!	!	!	!	!	!	!	!	!	!	!	!	!	!	!	!	!LO:LB:g=original	!	!
=16	=16	=16	=16	=16	=16	=16	=16	=16	=16	=16	=16	=16	=16	=16	=16	=16	=16	=16	=16	=16	=16	=16	=16	=16	=16
!	!	!LO:TX:t=P:problem:mixed beam	!	!	!	!LO:TX:t=P:problem:mixed beam	!	!	!	!	!	!	!	!	!	!	!	!	!	!	!	!	!	!	!
8c\L	6	8e\L	.	8a/L	.	16a\LL	.	8C/L	om-	4e\	om-	.	8a\	.	4a\	.	1ryy	2r	.	2r	.	4r	4r	8a/L	8ee\L
.	.	.	.	.	.	16ee\	.	.	.	.	.	.	.	.	.	.	.	.	.	.	.	.	.	.	.
8c#X\	6 5	8A/	.	(16e/L	.	16e/	.	8C#X/J	.	.	.	.	8g\	-ni-	.	.	.	.	.	.	.	.	.	8a/	8gg\
.	.	.	.	16g/JJ)	.	16gn/JJ	.	.	.	.	.	.	.	.	.	.	.	.	.	.	.	.	.	.	.
8d\	#	8A/	.	16f#X/LL	.	16f#X/LL	.	8D\	-ni-	8d\	-ni-	.	4f#X\	-a	8a\	-ni-	.	.	.	.	.	8r	8r	8a/	8ff#X\
.	.	.	.	16a/	.	16a/JJ	.	.	.	.	.	.	.	.	.	.	.	.	.	.	.	.	.	.	.
8F#X\J	6 5	8d/J	.	16dd/	.	16dd\LL	.	8F#X\	-a	8d\	-a	.	.	.	8a\	-a	.	.	.	.	.	8dd\	8dd\	8dd/J	8aa\J
.	.	.	.	16cc/JJ	.	16cc\JJ	.	.	.	.	.	.	.	.	.	.	.	.	.	.	.	.	.	.	.
.	.	.	.	.	.	8qcc/	.	.	.	.	.	.	.	.	.	.	.	.	.	.	.	.	.	.	.
*	*	*	*	*	*	*	*	*	*	*	*	*	*	*	*	*	*	*	*	*	*	*	*	*	*tremolo
!	!	!	!	!	!	!	!	!	!	!	!	!	!LO:LB:g=original	!	!	!	!	!	!	!	!	!	!	!LO:LB:g=original	!
8G\L	.	8g\L	.	16b/LL	.	8b\L	.	(4G\	sae-	4d\	sae-	.	4g\	an-	4b\	an-	.	4g/	.	4g/	.	4g/	4dd\	4b\	8gg\L
.	.	.	.	16g/	.	.	.	.	.	.	.	.	.	.	.	.	.	.	.	.	.	.	.	.	.
8G\	.	8g\	.	16g/	.	16a\L	.	.	.	.	.	.	.	.	.	.	.	.	.	.	.	.	.	.	8gg\
.	.	.	.	16g/JJ	.	16b\JJ	.	.	.	.	.	.	.	.	.	.	.	.	.	.	.	.	.	.	.
.	.	.	.	.	.	8qdd/	.	.	.	.	.	.	.	.	.	.	.	.	.	.	.	.	.	.	.
*	*	*	*	*tremolo	*	*	*	*	*	*	*	*	*	*	*	*	*	*	*	*	*	*	*	*	*
8E\	6	8e\	.	16g/LL	.	8cc\L	.	4E\)	.	4c\	-cu-	.	4g\	-te	4cc\	-te	.	4g/	.	4g/	.	4cc\	4cc\	4cc\	8gg\
.	.	.	.	16g/	.	.	.	.	.	.	.	.	.	.	.	.	.	.	.	.	.	.	.	.	.
8E\J	.	8e\J	.	16g/	.	16b\L	.	.	.	.	.	.	.	.	.	.	.	.	.	.	.	.	.	.	8gg\J
.	.	.	.	16g/JJ	.	16cc\JJ	.	.	.	.	.	.	.	.	.	.	.	.	.	.	.	.	.	.	.
*	*	*	*	*	*	*	*	*	*	*	*	*	*	*	*	*	*	*	*	*	*	*	*	*	*Xtremolo
!	!	!	!	!	!	!	!	!	!	!	!	!	!	!	!	!	!	!	!	!	!	!	!	!	!LO:LB:g=original
=17	=17	=17	=17	=17	=17	=17	=17	=17	=17	=17	=17	=17	=17	=17	=17	=17	=17	=17	=17	=17	=17	=17	=17	=17	=17
!	!	!	!	!	!	!	!	!	!	!	!	!	!	!	!	!	!	!	!	!	!	!	!LO:TX:a:t=d	!	!
8BB/L	6	8B/L	.	16g/LL	.	16dd\LL	.	4BB/	.	4d\	-la	.	4g\	om-	4dd\	om-	1ryy	4g/	.	4g/	.	4g/	4dd\	4dd\	4gg\
.	.	.	.	16g/	.	16ee\	.	.	.	.	.	.	.	.	.	.	.	.	.	.	.	.	.	.	.
8BB/	.	8B/	.	16g/	.	16ff#X\	.	.	.	.	.	.	.	.	.	.	.	.	.	.	.	.	.	.	.
.	.	.	.	16g/	.	16gg\JJ	.	.	.	.	.	.	.	.	.	.	.	.	.	.	.	.	.	.	.
!	!	!	!	!	!	!	!	!	!	!	!	!	!	!	!	!	!	!	!	!	!	!	!LO:TX:a:t=bis	!	!
8C/	6	8c/	.	16g/	.	16ff#\LL	.	8C/	-cu-	8c\	an-	.	8g\	-ni-	8ee\	-ni-	.	4r	.	4r	.	4cc\	4ee\	4ee\	4gg\
.	.	.	.	16g/	.	16ee\	.	.	.	.	.	.	.	.	.	.	.	.	.	.	.	.	.	.	.
8C/J	3	8c/J	.	16g/	.	16dd\	.	8C/	-la	8e\	-te	.	8g\	-a	16dd\LL	-a	.	.	.	.	.	.	.	.	.
.	.	.	.	16g/JJ	.	16cc\JJ	.	.	.	.	.	.	.	.	16cc\JJ	.	.	.	.	.	.	.	.	.	.
*	*	*tremolo	*	*	*	*	*	*	*	*	*	*	*	*	*	*	*	*tremolo	*	*tremolo	*	*tremolo	*	*	*
!	!	!	!	!	!	!	!	!	!	!	!	!	!	!	!	!	!	!	!	!	!	!	!LO:TX:a:t=d	!	!
8D/L	.	8d\L	.	16g/LL	.	16b\LL	.	4.D/	sae-	4.d\	sae-	.	4g\	sae-	(4b\	sae-	.	8dd\L	.	8dd\L	.	8dd\L	2dd\	4b\	4gg\
.	.	.	.	16g/	.	16dd\	.	.	.	.	.	.	.	.	.	.	.	.	.	.	.	.	.	.	.
8D/	.	8d\	.	16g/	.	16g\	.	.	.	.	.	.	.	.	.	.	.	8dd\	.	8dd\	.	8dd\	.	.	.
.	.	.	.	16g/JJ	.	16b\JJ	.	.	.	.	.	.	.	.	.	.	.	.	.	.	.	.	.	.	.
!	!	!	!	!	!	!LO:TX:t=P:problem:mixed beam	!	!	!	!	!	!	!	!	!	!	!	!	!	!	!	!	!	!	!
8DD/	.	8d\	.	16f#X/LL	.	16a\LL	.	.	.	.	.	.	8f#X\	-cu-	8a\)	.	.	8dd\	.	8dd\	.	8dd\	.	4a/	4ff#X\
.	.	.	.	16f#X/	.	16cc\	.	.	.	.	.	.	.	.	.	.	.	.	.	.	.	.	.	.	.
8DD/J	.	8d\J	.	16f#X/	.	16f#X/	.	8D/	-cu-	8d\	-cu-	.	8f#\	-la	8a\	-cu-	.	8dd\J	.	8dd\J	.	8dd\J	.	.	.
.	.	.	.	16f#X/JJ	.	16a/JJ	.	.	.	.	.	.	.	.	.	.	.	.	.	.	.	.	.	.	.
*	*	*Xtremolo	*	*	*	*	*	*	*	*	*	*	*	*	*	*	*	*Xtremolo	*	*Xtremolo	*	*Xtremolo	*	*	*
!	!	!	!	!	!	!LO:LB:g=original	!	!	!	!	!	!	!	!	!	!	!	!	!	!	!	!	!	!	!
=18	=18	=18	=18	=18	=18	=18	=18	=18	=18	=18	=18	=18	=18	=18	=18	=18	=18	=18	=18	=18	=18	=18	=18	=18	=18
!	!	!	!	!	!	!LO:TX:t=P:problem:mixed beam	!	!	!	!	!	!	!	!	!	!	!	!	!	!	!	!	!LO:TX:t=P:problem:takt nr 18 zapisany repetycją	!	!
8GG/L	.	8d\L	.	16g/LL	.	16g/LL	.	4G\	-la	4d\	-la	.	4g\	sae-	4b\	-la	1ryy	4g/	.	4dd\	.	4g/	4dd\yy	8b\L	2gg\
.	.	.	.	16g/	.	16gg\	.	.	.	.	.	.	.	.	.	.	.	.	.	.	.	.	.	.	.
8BB/	6	8d\	.	16g/	.	16bb\	.	.	.	.	.	.	.	.	.	.	.	.	.	.	.	.	.	8dd\	.
.	.	.	.	16g/	.	16gg\JJ	.	.	.	.	.	.	.	.	.	.	.	.	.	.	.	.	.	.	.
8C/	.	8e\	.	16g/	.	16ff#X\LL	.	4r	.	4e\	sae-	.	(2g\	.	(4cc\	sae-	.	4cc\	.	4ee\	.	4cc\	4ee\yy	8ee\	.
.	.	.	.	16g/	.	16ee\	.	.	.	.	.	.	.	.	.	.	.	.	.	.	.	.	.	.	.
8C/J	6	8e\J	.	16g/	.	16dd\	.	.	.	.	.	.	.	.	.	.	.	.	.	.	.	.	.	8cc\J	.
.	.	.	.	16g/JJ	.	16cc\JJ	.	.	.	.	.	.	.	.	.	.	.	.	.	.	.	.	.	.	.
*	*	*tremolo	*	*Xtremolo	*	*	*	*	*	*	*	*	*	*	*	*	*	*tremolo	*	*tremolo	*	*tremolo	*	*	*
8D/L	6 4	8d\L	.	16g/LL	.	16b\LL	.	4.D\	sae-	4.d\	.	.	.	.	4b\)	.	.	8dd\L	.	8cc\L	.	8dd\L	2dd\yy	4b\	4gg\
.	.	.	.	16g/	.	16dd\	.	.	.	.	.	.	.	.	.	.	.	.	.	.	.	.	.	.	.
8D/	.	8d\	.	16b/	.	16gg\	.	.	.	.	.	.	.	.	.	.	.	8dd\	.	8cc\	.	8dd\	.	.	.
.	.	.	.	16b/JJ	.	16b\JJ	.	.	.	.	.	.	.	.	.	.	.	.	.	.	.	.	.	.	.
*	*	*	*	*tremolo	*	*	*	*	*	*	*	*	*	*	*	*	*	*	*	*	*	*	*	*	*
!	!	!	!	!	!	!LO:TX:t=P:problem:mixed beam	!	!	!	!	!	!	!	!	!	!	!	!	!	!	!	!	!	!	!
8DD/	5 3	8d\	.	16a/LL	.	16a\LL	.	.	.	.	.	.	8f#X\)	.	8a\	.	.	8dd\	.	8cc\	.	8dd\	.	4a/	4ff#X\
.	.	.	.	16a/	.	16dd\	.	.	.	.	.	.	.	.	.	.	.	.	.	.	.	.	.	.	.
8DD/J	.	8d\J	.	16a/	.	16ff#X\	.	8D\	-cu-	8d\	-cu-	.	8f#\	-cu-	8a\	-cu-	.	8dd\J	.	8cc\J	.	8dd\J	.	.	.
.	.	.	.	16a/JJ	.	16a/JJ	.	.	.	.	.	.	.	.	.	.	.	.	.	.	.	.	.	.	.
*	*	*Xtremolo	*	*Xtremolo	*	*	*	*	*	*	*	*	*	*	*	*	*	*Xtremolo	*	*Xtremolo	*	*Xtremolo	*	*	*
=19	=19	=19	=19	=19	=19	=19	=19	=19	=19	=19	=19	=19	=19	=19	=19	=19	=19	=19	=19	=19	=19	=19	=19	=19	=19
!LO:TX:a:i:t=Solo	!	!	!	!	!	!	!LO:DY:t=pia	!	!	!	!	!	!	!	!	!	!	!	!	!	!	!	!	!	!
4GG/	.	8d\	.	8b/	.	8gg\L	p	4G\	-la	8d\	-la	.	8g\	-la	4b\	-la	1ryy	4g/	.	4dd\	.	4g/	4dd\	4b\	4gg\
!	!	!	!	!	!	!	!	!	!	!LO:TX:a:i:t=Solo	!	!	!	!	!	!	!	!	!	!	!	!	!	!	!
.	.	8r	.	8r	.	8dd\	.	.	.	8d\	De-	.	8r	.	.	.	.	.	.	.	.	.	.	.	.
4r	.	4r	.	4r	.	8dd\	.	4r	.	8d\	-um	.	4r	.	4r	.	.	4r	.	4r	.	4r	4r	4r	4r
.	.	.	.	.	.	8dd\J	.	.	.	8d\	de	.	.	.	.	.	.	.	.	.	.	.	.	.	.
*	*	*	*	*	*	*	*	*	*	*2\right	*	*	*	*	*	*	*	*	*	*	*	*	*	*	*
!	!	!	!	!	!LO:DY:a:t=p&colon;	!	!	!	!	!LO:LB:g=original	!	!	!	!	!	!	!	!	!	!	!	!	!	!	!
8r	.	8r	.	8r	p	2dd\	.	2r	.	2d\	De-	.	2r	.	2r	.	.	2r	.	2r	.	2r	2r	2r	2r
8B\L	.	8B/L	p	(8d/L	.	.	.	.	.	.	.	.	.	.	.	.	.	.	.	.	.	.	.	.	.
8A\	.	8A/	.	8c/	.	.	.	.	.	.	.	.	.	.	.	.	.	.	.	.	.	.	.	.	.
8G\J	.	8G/J	.	8B/J)	.	.	.	.	.	.	.	.	.	.	.	.	.	.	.	.	.	.	.	.	.
!	!	!	!	!	!	!	!	!LO:LB:g=original	!	!	!	!	!	!	!LO:LB:g=original	!	!	!	!	!	!	!LO:LB:g=original	!	!	!
=20	=20	=20	=20	=20	=20	=20	=20	=20	=20	=20	=20	=20	=20	=20	=20	=20	=20	=20	=20	=20	=20	=20	=20	=20	=20
*	*	*	*	*	*	*tremolo	*	*	*	*	*	*	*	*	*	*	*	*	*	*	*	*	*	*	*
!	!	!	!	!	!	!	!	!	!	!	!	!	!	!	!	!	!	!	!	!LO:TX:b:t=pause	!	!	!	!	!
!	!	!	!	!LO:N:vis=4	!	!	!	!LO:TX:b:t=15	!	!	!	!	!LO:TX:b:t=15.	!	!LO:TX:b:t=15	!	!	!LO:TX:a:t=15.	!	!LO:TX:a:t=15.	!	!LO:TX:a:t=15.	!LO:TX:a:t=15	!LO:TX:a:t=15	!LO:TX:a:t=15.
4F#X\	.	4F#X/	.	8A/	.	8dd\L	.	00r	.	8d\	-o	.	00r	.	00r	.	1ryy	00r	.	1r	.	00r	00r	1r	00r
.	.	.	.	8r	.	8dd\	.	.	.	8d\	lu-	.	.	.	.	.	.	.	.	.	.	.	.	.	.
4r	.	4r	.	4r	.	8dd\	.	.	.	8d\	-men	.	.	.	.	.	.	.	.	.	.	.	.	.	.
.	.	.	.	.	.	8dd\J	.	.	.	8d\	de	.	.	.	.	.	.	.	.	.	.	.	.	.	.
*	*	*	*	*	*	*Xtremolo	*	*	*	*	*	*	*	*	*	*	*	*	*	*	*	*	*	*	*
8r	.	8r	.	8r	.	4.dd\	.	.	.	4.d\	lu-	.	.	.	.	.	.	.	.	.	.	.	.	.	.
8D\L	8_ 3	8d\L	.	(8f#X/L	.	.	.	.	.	.	.	.	.	.	.	.	.	.	.	.	.	.	.	.	.
8E\	_ 3	8e\	.	8g/	.	.	.	.	.	.	.	.	.	.	.	.	.	.	.	.	.	.	.	.	.
8F#X\J	_ 3	8f#X\J	.	8a/J)	.	8cc\	.	.	.	8c\	-mi-	.	.	.	.	.	.	.	.	.	.	.	.	.	.
=21	=21	=21	=21	=21	=21	=21	=21	=21	=21	=21	=21	=21	=21	=21	=21	=21	=21	=21	=21	=21	=21	=21	=21	=21	=21
4G\	x	4g\	.	4d/	.	8b\	.	.	.	8B\	-ne	.	.	.	.	.	1ryy	.	.	1r	.	.	.	1r	.
.	.	.	.	.	.	4b\	.	.	.	4B\	De-	.	.	.	.	.	.	.	.	.	.	.	.	.	.
4F#X\	6\	4B/	.	4a/	.	.	.	.	.	.	.	.	.	.	.	.	.	.	.	.	.	.	.	.	.
.	.	.	.	.	.	8dd#X\	.	.	.	8d#X\	-um	.	.	.	.	.	.	.	.	.	.	.	.	.	.
*	*	*tremolo	*	*	*	*	*	*	*	*	*	*	*	*	*	*	*	*	*	*	*	*	*	*	*
8E\L	.	8B/L	.	(8g/L	.	8ee\	.	.	.	4e\	ve-	.	.	.	.	.	.	.	.	.	.	.	.	.	.
8F#\	.	8B/	.	8a/	.	4ee\	.	.	.	.	.	.	.	.	.	.	.	.	.	.	.	.	.	.	.
8G\	6	8B/	.	8b/	.	.	.	.	.	8e\	-rum	.	.	.	.	.	.	.	.	.	.	.	.	.	.
8E\J	.	8B/J	.	8g/J)	.	8ee\	.	.	.	8e\	de	.	.	.	.	.	.	.	.	.	.	.	.	.	.
*	*	*Xtremolo	*	*	*	*	*	*	*	*	*	*	*	*	*	*	*	*	*	*	*	*	*	*	*
=22	=22	=22	=22	=22	=22	=22	=22	=22	=22	=22	=22	=22	=22	=22	=22	=22	=22	=22	=22	=22	=22	=22	=22	=22	=22
8BB/L	#_	8B/L	.	8B/	.	8dd#X\L	.	.	.	8d#X\L	De-	.	.	.	.	.	1ryy	.	.	1r	.	.	.	1r	.
.	.	.	.	.	.	8qff/	.	.	.	.	.	.	.	.	.	.	.	.	.	.	.	.	.	.	.
8C#X/	.	8c#X/	.	4B/	.	16ee\L	.	.	.	8e\	.	.	.	.	.	.	.	.	.	.	.	.	.	.	.
.	.	.	.	.	.	32dd#\L	.	.	.	.	.	.	.	.	.	.	.	.	.	.	.	.	.	.	.
.	.	.	.	.	.	32ee\JJJ	.	.	.	.	.	.	.	.	.	.	.	.	.	.	.	.	.	.	.
!	!	!	!	!	!	!LO:LB:g=original	!	!	!	!	!	!	!	!	!	!	!	!	!	!	!	!	!	!	!
8D#X/	.	8d#X/	.	.	.	8ff#X\	.	.	.	8f\J	.	.	.	.	.	.	.	.	.	.	.	.	.	.	.
.	.	.	.	.	.	8qb/	.	.	.	.	.	.	.	.	.	.	.	.	.	.	.	.	.	.	.
8BB/J	.	8B/J	.	4B/	.	16a/LL	.	.	.	8A/	-o	.	.	.	.	.	.	.	.	.	.	.	.	.	.
.	.	.	.	.	.	32g/L	.	.	.	.	.	.	.	.	.	.	.	.	.	.	.	.	.	.	.
.	.	.	.	.	.	32a/JJJ	.	.	.	.	.	.	.	.	.	.	.	.	.	.	.	.	.	.	.
!LO:LB:g=original	!	!	!	!	!	!	!	!	!	!	!	!	!	!	!	!	!	!	!	!	!	!	!	!	!
8E\L	3	8e\L	.	.	.	8g/L	.	.	.	8G/L	ve-	.	.	.	.	.	.	.	.	.	.	.	.	.	.
.	.	.	.	.	.	8qb/	.	.	.	.	.	.	.	.	.	.	.	.	.	.	.	.	.	.	.
8F#X\	3	8f#X\	.	4B/	.	16a/L	.	.	.	8A/J	.	.	.	.	.	.	.	.	.	.	.	.	.	.	.
.	.	.	.	.	.	32g/L	.	.	.	.	.	.	.	.	.	.	.	.	.	.	.	.	.	.	.
.	.	.	.	.	.	32a/JJJ	.	.	.	.	.	.	.	.	.	.	.	.	.	.	.	.	.	.	.
8G\	3	8g\	.	.	.	8b\L	.	.	.	8B\	-ro	.	.	.	.	.	.	.	.	.	.	.	.	.	.
8E\J	3	8g\J	.	8B/	.	8ee\J	.	.	.	8e\	de	.	.	.	.	.	.	.	.	.	.	.	.	.	.
!	!	!	!	!LO:LB:g=original	!	!	!	!	!	!LO:LB:g=original	!	!	!	!	!	!	!	!	!	!	!	!	!	!	!
=23	=23	=23	=23	=23	=23	=23	=23	=23	=23	=23	=23	=23	=23	=23	=23	=23	=23	=23	=23	=23	=23	=23	=23	=23	=23
8BB/L	#	8f#X\L	.	8B/	.	8dd#X\L	.	.	.	8d#X\L	De-	.	.	.	.	.	1ryy	.	.	1r	.	.	.	1r	.
.	.	.	.	.	.	8qff/	.	.	.	.	.	.	.	.	.	.	.	.	.	.	.	.	.	.	.
8C#X/	3	8e\	.	4B/	.	16ee\L	.	.	.	8e\	.	.	.	.	.	.	.	.	.	.	.	.	.	.	.
.	.	.	.	.	.	32dd#\L	.	.	.	.	.	.	.	.	.	.	.	.	.	.	.	.	.	.	.
.	3	.	.	.	.	32ee\JJJ	.	.	.	.	.	.	.	.	.	.	.	.	.	.	.	.	.	.	.
8D#X/	.	8d#X\	.	.	.	8ff#X\	.	.	.	8f\J	.	.	.	.	.	.	.	.	.	.	.	.	.	.	.
.	.	.	.	.	.	8qb/	.	.	.	.	.	.	.	.	.	.	.	.	.	.	.	.	.	.	.
8BB/J	3	8f#\J	.	4B/	.	16a/LL	.	.	.	8A/	-o	.	.	.	.	.	.	.	.	.	.	.	.	.	.
.	.	.	.	.	.	32g/L	.	.	.	.	.	.	.	.	.	.	.	.	.	.	.	.	.	.	.
.	.	.	.	.	.	32a/JJJ	.	.	.	.	.	.	.	.	.	.	.	.	.	.	.	.	.	.	.
8E\L	3	8e\L	.	.	.	8g/L	.	.	.	8G/L	ve-	.	.	.	.	.	.	.	.	.	.	.	.	.	.
.	.	.	.	.	.	8qb/	.	.	.	.	.	.	.	.	.	.	.	.	.	.	.	.	.	.	.
8F\	3	8f#\	.	4B/	.	16a/L	.	.	.	8A/J	.	.	.	.	.	.	.	.	.	.	.	.	.	.	.
.	.	.	.	.	.	32g/L	.	.	.	.	.	.	.	.	.	.	.	.	.	.	.	.	.	.	.
.	.	.	.	.	.	32a/JJJ	.	.	.	.	.	.	.	.	.	.	.	.	.	.	.	.	.	.	.
8G\	3	8g\	.	.	.	8b\L	.	.	.	8B\	-ro	.	.	.	.	.	.	.	.	.	.	.	.	.	.
8E\J	3	8e\J	.	8B/	.	8ee\J	.	.	.	8r	.	.	.	.	.	.	.	.	.	.	.	.	.	.	.
=24	=24	=24	=24	=24	=24	=24	=24	=24	=24	=24	=24	=24	=24	=24	=24	=24	=24	=24	=24	=24	=24	=24	=24	=24	=24
8G#X\L	6	8B/L	.	8e/	.	16dd#X\LL	.	00r	.	4.e\	ge-	.	00r	.	00r	.	1ryy	00r	.	1r	.	00r	00r	1r	00r
.	.	.	.	.	.	16ee\	.	.	.	.	.	.	.	.	.	.	.	.	.	.	.	.	.	.	.
8E\	.	8G#X/	.	4e/	.	16ff\	.	.	.	.	.	.	.	.	.	.	.	.	.	.	.	.	.	.	.
.	.	.	.	.	.	16ee\JJ	.	.	.	.	.	.	.	.	.	.	.	.	.	.	.	.	.	.	.
8G#\	.	8B/	.	.	.	16bb\LL	.	.	.	.	.	.	.	.	.	.	.	.	.	.	.	.	.	.	.
.	.	.	.	.	.	16gg#X\	.	.	.	.	.	.	.	.	.	.	.	.	.	.	.	.	.	.	.
8E\J	7	8G#/J	.	4e/	.	16ee\	.	.	.	8d\	-ni-	.	.	.	.	.	.	.	.	.	.	.	.	.	.
!	!	!	!	!	!	!LO:SIC:v:s=16ddn\JJ	!	!	!	!	!	!	!	!	!	!	!	!	!	!	!	!	!	!	!
.	.	.	.	.	.	16dd#\JJ	.	.	.	.	.	.	.	.	.	.	.	.	.	.	.	.	.	.	.
!LO:TX:t=P:problem:mixed beam	!	!LO:TX:t=P:problem:mixed beam	!	!	!	!LO:SIC:v:s=16ddn'LL	!	!	!	!	!	!	!	!	!	!	!	!	!	!	!	!	!	!	!
8A\L	.	8A/L	.	.	.	16dd#\LL	.	.	.	4c\	-tum	.	.	.	.	.	.	.	.	.	.	.	.	.	.
.	.	.	.	.	.	16cc\	.	.	.	.	.	.	.	.	.	.	.	.	.	.	.	.	.	.	.
8AA/J	.	8a\J	.	4e/	.	16b\	.	.	.	.	.	.	.	.	.	.	.	.	.	.	.	.	.	.	.
.	.	.	.	.	.	16cc\JJ	.	.	.	.	.	.	.	.	.	.	.	.	.	.	.	.	.	.	.
!	!	!	!	!	!	!LO:LB:g=original	!	!	!	!	!	!	!	!	!	!	!	!	!	!	!	!	!	!	!
8r	.	8r	.	.	.	16ee\LL	.	.	.	8r	.	.	.	.	.	.	.	.	.	.	.	.	.	.	.
.	.	.	.	.	.	16cc\	.	.	.	.	.	.	.	.	.	.	.	.	.	.	.	.	.	.	.
8c\	.	8A/	.	8e/	.	16b\	.	.	.	8A\	non	.	.	.	.	.	.	.	.	.	.	.	.	.	.
.	.	.	.	.	.	16a\JJ	.	.	.	.	.	.	.	.	.	.	.	.	.	.	.	.	.	.	.
=25	=25	=25	=25	=25	=25	=25	=25	=25	=25	=25	=25	=25	=25	=25	=25	=25	=25	=25	=25	=25	=25	=25	=25	=25	=25
!	!	!	!	!	!	!LO:TX:t=P:problem:mixed beam	!	!	!	!	!	!	!	!	!	!	!	!	!	!	!	!	!	!	!
8e\L	.	8B/L	.	8e/	.	16g#X/LL	.	.	.	4.e\	fa-	.	.	.	.	.	1ryy	.	.	1r	.	.	.	1r	.
.	.	.	.	.	.	16ee\	.	.	.	.	.	.	.	.	.	.	.	.	.	.	.	.	.	.	.
8E\	#	8G#X/	.	4e/	.	16dd#X\	.	.	.	.	.	.	.	.	.	.	.	.	.	.	.	.	.	.	.
.	.	.	.	.	.	16ee\JJ	.	.	.	.	.	.	.	.	.	.	.	.	.	.	.	.	.	.	.
8G#X\	6	8B/	.	.	.	16bb\LL	.	.	.	.	.	.	.	.	.	.	.	.	.	.	.	.	.	.	.
.	.	.	.	.	.	16gg#X\	.	.	.	.	.	.	.	.	.	.	.	.	.	.	.	.	.	.	.
8E\J	7	8G#/J	.	4e/	.	16ee\	.	.	.	8d\	.	.	.	.	.	.	.	.	.	.	.	.	.	.	.
.	.	.	.	.	.	16ddn\JJ	.	.	.	.	.	.	.	.	.	.	.	.	.	.	.	.	.	.	.
!LO:TX:t=P:problem:mixed beam	!	!LO:TX:t=P:problem:mixed beam	!	!	!	!	!	!	!	!	!	!	!	!	!	!	!	!	!	!	!	!	!	!	!
8A\L	.	8A/L	.	.	.	16dd\LL	.	.	.	4c\	-ctum	.	.	.	.	.	.	.	.	.	.	.	.	.	.
.	.	.	.	.	.	16cc\	.	.	.	.	.	.	.	.	.	.	.	.	.	.	.	.	.	.	.
8AA/J	.	8a\J	.	4e/	.	16b\	.	.	.	.	.	.	.	.	.	.	.	.	.	.	.	.	.	.	.
.	.	.	.	.	.	16cc\JJ	.	.	.	.	.	.	.	.	.	.	.	.	.	.	.	.	.	.	.
8r	.	8r	.	.	.	16ee\LL	.	.	.	4r	.	.	.	.	.	.	.	.	.	.	.	.	.	.	.
.	.	.	.	.	.	16b\	.	.	.	.	.	.	.	.	.	.	.	.	.	.	.	.	.	.	.
8c\	.	8A/	.	8e/	.	16cc\	.	.	.	.	.	.	.	.	.	.	.	.	.	.	.	.	.	.	.
.	.	.	.	.	.	16a\JJ	.	.	.	.	.	.	.	.	.	.	.	.	.	.	.	.	.	.	.
=26	=26	=26	=26	=26	=26	=26	=26	=26	=26	=26	=26	=26	=26	=26	=26	=26	=26	=26	=26	=26	=26	=26	=26	=26	=26
!LO:TX:t=P:problem:mixed beam	!	!	!	!	!	!LO:TX:t=P:problem:mixed beam	!	!	!	!	!	!	!	!	!	!	!	!	!	!	!	!	!	!	!
8d\L	#_	8A/L	.	8d/	.	16gn/LL	.	.	.	4.d\	con-	.	.	.	.	.	1ryy	.	.	1r	.	.	.	1r	.
.	.	.	.	.	.	16f#X/	.	.	.	.	.	.	.	.	.	.	.	.	.	.	.	.	.	.	.
8D/J	.	8F#X/	.	4d/	.	16ee\	.	.	.	.	.	.	.	.	.	.	.	.	.	.	.	.	.	.	.
.	.	.	.	.	.	16dd\JJ	.	.	.	.	.	.	.	.	.	.	.	.	.	.	.	.	.	.	.
8F#X\L	.	8A/	.	.	.	16aa\LL	.	.	.	.	.	.	.	.	.	.	.	.	.	.	.	.	.	.	.
.	.	.	.	.	.	16ff#X\	.	.	.	.	.	.	.	.	.	.	.	.	.	.	.	.	.	.	.
8D\J	7	8F#/J	.	4d/	.	16dd\	.	.	.	8c\	-sub-	.	.	.	.	.	.	.	.	.	.	.	.	.	.
.	.	.	.	.	.	16cc\JJ	.	.	.	.	.	.	.	.	.	.	.	.	.	.	.	.	.	.	.
!LO:TX:t=P:problem:mixed beam	!	!LO:TX:t=P:problem:mixed beam	!	!	!	!	!	!	!	!	!	!	!	!	!	!	!	!	!	!	!	!	!	!	!
8G\L	.	8G/L	.	.	.	16cc\LL	.	.	.	4.B\	-stan-	.	.	.	.	.	.	.	.	.	.	.	.	.	.
.	.	.	.	.	.	16b\	.	.	.	.	.	.	.	.	.	.	.	.	.	.	.	.	.	.	.
8GG/J	.	8g\J	.	4d/	.	16a\	.	.	.	.	.	.	.	.	.	.	.	.	.	.	.	.	.	.	.
.	.	.	.	.	.	16b\JJ	.	.	.	.	.	.	.	.	.	.	.	.	.	.	.	.	.	.	.
8r	.	8r	.	.	.	16dd\LL	.	.	.	.	.	.	.	.	.	.	.	.	.	.	.	.	.	.	.
.	.	.	.	.	.	16b\	.	.	.	.	.	.	.	.	.	.	.	.	.	.	.	.	.	.	.
8BB/	.	8G/	.	8d/	.	16a\	.	.	.	8G/	-ti-	.	.	.	.	.	.	.	.	.	.	.	.	.	.
.	.	.	.	.	.	16g\JJ	.	.	.	.	.	.	.	.	.	.	.	.	.	.	.	.	.	.	.
=27	=27	=27	=27	=27	=27	=27	=27	=27	=27	=27	=27	=27	=27	=27	=27	=27	=27	=27	=27	=27	=27	=27	=27	=27	=27
!	!	!	!	!	!	!LO:TX:t=P:problem:mixed beam	!	!	!	!	!	!	!	!	!	!	!	!	!	!	!	!	!	!	!
8D\L	8_ 3	8A/L	.	8d/	.	16f#X/LL	.	.	.	4.d\	-a-	.	.	.	.	.	1ryy	.	.	1r	.	.	.	1r	.
.	.	.	.	.	.	16dd\	.	.	.	.	.	.	.	.	.	.	.	.	.	.	.	.	.	.	.
8D\	_ 3	8F#X/	.	4d/	.	16ee\	.	.	.	.	.	.	.	.	.	.	.	.	.	.	.	.	.	.	.
.	.	.	.	.	.	16dd\JJ	.	.	.	.	.	.	.	.	.	.	.	.	.	.	.	.	.	.	.
!	!	!	!	!	!	!LO:LB:g=original	!	!	!	!	!	!	!	!	!	!	!	!	!	!	!	!	!	!	!
8F#X\	_ 3	8A/	.	.	.	16aa\LL	.	.	.	.	.	.	.	.	.	.	.	.	.	.	.	.	.	.	.
.	.	.	.	.	.	16ff#X\	.	.	.	.	.	.	.	.	.	.	.	.	.	.	.	.	.	.	.
8D\J	_ 3	8F#/J	.	4d/	.	16dd\	.	.	.	8c\	.	.	.	.	.	.	.	.	.	.	.	.	.	.	.
.	.	.	.	.	.	16cc\JJ	.	.	.	.	.	.	.	.	.	.	.	.	.	.	.	.	.	.	.
!LO:TX:t=P:problem:mixed beam	!	!LO:TX:t=P:problem:mixed beam	!	!	!	!	!	!	!	!LO:LB:g=original	!	!	!	!	!	!	!	!	!	!	!	!	!	!	!
8G\L	x	8G/L	.	.	.	16cc\LL	.	.	.	4B\	-lem	.	.	.	.	.	.	.	.	.	.	.	.	.	.
.	.	.	.	.	.	16b\	.	.	.	.	.	.	.	.	.	.	.	.	.	.	.	.	.	.	.
8GG/J	.	8g\J	.	4d/	.	16a\	.	.	.	.	.	.	.	.	.	.	.	.	.	.	.	.	.	.	.
.	.	.	.	.	.	16b\JJ	.	.	.	.	.	.	.	.	.	.	.	.	.	.	.	.	.	.	.
8r	.	8r	.	.	.	16dd\LL	.	.	.	4r	.	.	.	.	.	.	.	.	.	.	.	.	.	.	.
.	.	.	.	.	.	16b\	.	.	.	.	.	.	.	.	.	.	.	.	.	.	.	.	.	.	.
8G\	.	8G/	.	8d/	.	16a\	.	.	.	.	.	.	.	.	.	.	.	.	.	.	.	.	.	.	.
.	.	.	.	.	.	16g\JJ	.	.	.	.	.	.	.	.	.	.	.	.	.	.	.	.	.	.	.
!LO:PB:g=original	!	!LO:LB:g=original	!	!	!	!	!	!	!	!	!	!	!	!	!	!	!	!	!	!	!	!	!	!	!
=28	=28	=28	=28	=28	=28	=28	=28	=28	=28	=28	=28	=28	=28	=28	=28	=28	=28	=28	=28	=28	=28	=28	=28	=28	=28
*tremolo	*	*tremolo	*	*tremolo	*	*	*	*	*	*	*	*	*	*	*	*	*	*	*	*	*	*	*	*	*
8Fn\L	4 2	8B/L	.	8d/L	.	16b\LL	.	00r	.	4.B\	Pa-	.	00r	.	00r	.	1ryy	00r	.	1r	.	00r	00r	1r	00r
.	.	.	.	.	.	16g\	.	.	.	.	.	.	.	.	.	.	.	.	.	.	.	.	.	.	.
8F\	.	8B/	.	8d/	.	16dd\	.	.	.	.	.	.	.	.	.	.	.	.	.	.	.	.	.	.	.
.	.	.	.	.	.	16b\JJ	.	.	.	.	.	.	.	.	.	.	.	.	.	.	.	.	.	.	.
8F\	.	8B/	.	8d/	.	16gg\LL	.	.	.	.	.	.	.	.	.	.	.	.	.	.	.	.	.	.	.
.	.	.	.	.	.	16dd\	.	.	.	.	.	.	.	.	.	.	.	.	.	.	.	.	.	.	.
8F\J	.	8B/J	.	8d/J	.	16b\	.	.	.	8B\	-tre	.	.	.	.	.	.	.	.	.	.	.	.	.	.
.	.	.	.	.	.	16g\JJ	.	.	.	.	.	.	.	.	.	.	.	.	.	.	.	.	.	.	.
8E\L	.	8c\L	.	8g/L	.	16cc\LL	.	.	.	4.c\	per-	.	.	.	.	.	.	.	.	.	.	.	.	.	.
.	.	.	.	.	.	16g\	.	.	.	.	.	.	.	.	.	.	.	.	.	.	.	.	.	.	.
8E\	.	8c\	.	8g/	.	16ee\	.	.	.	.	.	.	.	.	.	.	.	.	.	.	.	.	.	.	.
.	.	.	.	.	.	16cc\JJ	.	.	.	.	.	.	.	.	.	.	.	.	.	.	.	.	.	.	.
8E\	.	8c\	.	8g/	.	16gg\LL	.	.	.	.	.	.	.	.	.	.	.	.	.	.	.	.	.	.	.
.	.	.	.	.	.	16ee\	.	.	.	.	.	.	.	.	.	.	.	.	.	.	.	.	.	.	.
8E\J	.	8c\J	.	8g/J	.	16cc\	.	.	.	8c\	-quem	.	.	.	.	.	.	.	.	.	.	.	.	.	.
.	.	.	.	.	.	16ee\JJ	.	.	.	.	.	.	.	.	.	.	.	.	.	.	.	.	.	.	.
*Xtremolo	*	*Xtremolo	*	*Xtremolo	*	*	*	*	*	*	*	*	*	*	*	*	*	*	*	*	*	*	*	*	*
=29	=29	=29	=29	=29	=29	=29	=29	=29	=29	=29	=29	=29	=29	=29	=29	=29	=29	=29	=29	=29	=29	=29	=29	=29	=29
8BB/L	6 5	8d\L	.	8g/	.	16ff\LL	.	.	.	4.f\	om-	.	.	.	.	.	1ryy	.	.	1r	.	.	.	1r	.
.	.	.	.	.	.	16dd\	.	.	.	.	.	.	.	.	.	.	.	.	.	.	.	.	.	.	.
8GG/	.	8B\	.	4g/	.	16b\	.	.	.	.	.	.	.	.	.	.	.	.	.	.	.	.	.	.	.
.	.	.	.	.	.	16g\JJ	.	.	.	.	.	.	.	.	.	.	.	.	.	.	.	.	.	.	.
8BB/	.	8d\	.	.	.	16f/LL	.	.	.	.	.	.	.	.	.	.	.	.	.	.	.	.	.	.	.
.	.	.	.	.	.	16g/	.	.	.	.	.	.	.	.	.	.	.	.	.	.	.	.	.	.	.
8GG/J	.	8B\J	.	4g/	.	16d/	.	.	.	8F/	-ni-	.	.	.	.	.	.	.	.	.	.	.	.	.	.
.	.	.	.	.	.	16g/JJ	.	.	.	.	.	.	.	.	.	.	.	.	.	.	.	.	.	.	.
!LO:TX:t=P:problem:mixed beam	!	!	!	!	!	!	!	!	!	!	!	!	!	!	!	!	!	!	!	!	!	!	!	!	!
8C/L	.	8c\L	.	.	.	16e/LL	.	.	.	4E/	-a	.	.	.	.	.	.	.	.	.	.	.	.	.	.
.	.	.	.	.	.	16g/	.	.	.	.	.	.	.	.	.	.	.	.	.	.	.	.	.	.	.
8c\J	.	8e\J	.	4g/	.	16cc/	.	.	.	.	.	.	.	.	.	.	.	.	.	.	.	.	.	.	.
.	.	.	.	.	.	16ee/JJ	.	.	.	.	.	.	.	.	.	.	.	.	.	.	.	.	.	.	.
8r	.	8r	.	.	.	16gg\LL	.	.	.	4r	.	.	.	.	.	.	.	.	.	.	.	.	.	.	.
.	.	.	.	.	.	16ee\	.	.	.	.	.	.	.	.	.	.	.	.	.	.	.	.	.	.	.
8c\	.	8e\	.	8g/	.	16dd\	.	.	.	.	.	.	.	.	.	.	.	.	.	.	.	.	.	.	.
.	.	.	.	.	.	16cc\JJ	.	.	.	.	.	.	.	.	.	.	.	.	.	.	.	.	.	.	.
!	!	!	!	!	!	!LO:LB:g=original	!	!	!	!	!	!	!	!	!	!	!	!	!	!	!	!	!	!	!
=30	=30	=30	=30	=30	=30	=30	=30	=30	=30	=30	=30	=30	=30	=30	=30	=30	=30	=30	=30	=30	=30	=30	=30	=30	=30
*	*	*	*	*	*	*	*	*	*	*	*ij	*	*	*	*	*	*	*	*	*	*	*	*	*	*
8B\L	6 5	8d\L	.	8g/	.	16ff\LL	.	.	.	4.f\	om-	.	.	.	.	.	1ryy	.	.	1r	.	.	.	1r	.
.	.	.	.	.	.	16dd\	.	.	.	.	.	.	.	.	.	.	.	.	.	.	.	.	.	.	.
8G\	.	8B\	.	4g/	.	16b\	.	.	.	.	.	.	.	.	.	.	.	.	.	.	.	.	.	.	.
.	.	.	.	.	.	16g\JJ	.	.	.	.	.	.	.	.	.	.	.	.	.	.	.	.	.	.	.
8B\	.	8d\	.	.	.	16f/LL	.	.	.	.	.	.	.	.	.	.	.	.	.	.	.	.	.	.	.
.	.	.	.	.	.	16g/	.	.	.	.	.	.	.	.	.	.	.	.	.	.	.	.	.	.	.
8G\J	.	8B\J	.	8g/	.	16d/	.	.	.	8F/	-ni-	.	.	.	.	.	.	.	.	.	.	.	.	.	.
.	.	.	.	.	.	16g/JJ	.	.	.	.	.	.	.	.	.	.	.	.	.	.	.	.	.	.	.
!	!	!	!	!	!	!LO:TX:t=P:problem:mixed beam	!	!	!	!	!	!	!	!	!	!	!	!	!	!	!	!	!	!	!
4c\	.	4c\	.	4g/	.	16e/LL	.	.	.	4E/	-a	.	.	.	.	.	.	.	.	.	.	.	.	.	.
*	*	*	*	*	*	*	*	*	*	*	*Xij	*	*	*	*	*	*	*	*	*	*	*	*	*	*
.	.	.	.	.	.	16cc\	.	.	.	.	.	.	.	.	.	.	.	.	.	.	.	.	.	.	.
.	.	.	.	.	.	16dd\	.	.	.	.	.	.	.	.	.	.	.	.	.	.	.	.	.	.	.
.	.	.	.	.	.	16ee\JJ	.	.	.	.	.	.	.	.	.	.	.	.	.	.	.	.	.	.	.
4r	.	4r	.	4r	.	16ff\LL	.	.	.	4r	.	.	.	.	.	.	.	.	.	.	.	.	.	.	.
.	.	.	.	.	.	16gg\	.	.	.	.	.	.	.	.	.	.	.	.	.	.	.	.	.	.	.
.	.	.	.	.	.	16aa\	.	.	.	.	.	.	.	.	.	.	.	.	.	.	.	.	.	.	.
.	.	.	.	.	.	16bb\JJ	.	.	.	.	.	.	.	.	.	.	.	.	.	.	.	.	.	.	.
!	!	!	!	!LO:PB:g=original	!	!	!	!	!	!	!	!	!	!	!	!	!	!	!	!	!	!	!	!	!
=31	=31	=31	=31	=31	=31	=31	=31	=31	=31	=31	=31	=31	=31	=31	=31	=31	=31	=31	=31	=31	=31	=31	=31	=31	=31
8r	.	8r	.	8r	.	8ccc\L	.	.	.	4.c\	per-	.	.	.	.	.	1ryy	.	.	1r	.	.	.	1r	.
8E\L	6_	8e\L	.	8g/L	.	8cc\	.	.	.	.	.	.	.	.	.	.	.	.	.	.	.	.	.	.	.
8E\	.	8e\	.	8g/	.	8cc\	.	.	.	.	.	.	.	.	.	.	.	.	.	.	.	.	.	.	.
8E\J	.	8e\J	.	8g/J	.	8cc\J	.	.	.	8c\	-quem	.	.	.	.	.	.	.	.	.	.	.	.	.	.
8r	x	8r	.	8r	.	8ccc\L	.	.	.	4c\	om-	.	.	.	.	.	.	.	.	.	.	.	.	.	.
8F\L	.	8f\L	.	8a/L	.	8cc\	.	.	.	.	.	.	.	.	.	.	.	.	.	.	.	.	.	.	.
8F\	.	8f\	.	8a/	.	8cc\	.	.	.	8c\	-ni-	.	.	.	.	.	.	.	.	.	.	.	.	.	.
8F\J	.	8f\J	.	8a/J	.	8cc\J	.	.	.	8c\	-a	.	.	.	.	.	.	.	.	.	.	.	.	.	.
=32	=32	=32	=32	=32	=32	=32	=32	=32	=32	=32	=32	=32	=32	=32	=32	=32	=32	=32	=32	=32	=32	=32	=32	=32	=32
8r	.	8r	.	8r	.	8ccc\L	.	0r	.	4.c\	fa-	.	0r	.	0r	.	1ryy	0r	.	1r	.	0r	0r	1r	0r
!	!	!	!	!	!	!LO:TX:t=P:problem:mixed beam	!	!	!	!	!	!	!	!	!	!	!	!	!	!	!	!	!	!	!
8A\L	6\_	8c/L	.	8d/L	.	8f#X/	.	.	.	.	.	.	.	.	.	.	.	.	.	.	.	.	.	.	.
8A\	.	8c/	.	8d/	.	8f#/	.	.	.	.	.	.	.	.	.	.	.	.	.	.	.	.	.	.	.
8A\J	.	8c/J	.	8d/J	.	8f#/J	.	.	.	8c\	-cta	.	.	.	.	.	.	.	.	.	.	.	.	.	.
4G\	.x	8B/	.	8d/	.	16g/LL	.	.	.	4B\	sunt	.	.	.	.	.	.	.	.	.	.	.	.	.	.
.	.	.	.	.	.	16f#/	.	.	.	.	.	.	.	.	.	.	.	.	.	.	.	.	.	.	.
.	.	8r	.	8r	.	16b/	.	.	.	.	.	.	.	.	.	.	.	.	.	.	.	.	.	.	.
.	.	.	.	.	.	16a/JJ	.	.	.	.	.	.	.	.	.	.	.	.	.	.	.	.	.	.	.
4r	.	4r	.	4r	.	16cc\LL	.	.	.	4r	.	.	.	.	.	.	.	.	.	.	.	.	.	.	.
.	.	.	.	.	.	16b\	.	.	.	.	.	.	.	.	.	.	.	.	.	.	.	.	.	.	.
.	.	.	.	.	.	16ee\	.	.	.	.	.	.	.	.	.	.	.	.	.	.	.	.	.	.	.
.	.	.	.	.	.	16dd\JJ	.	.	.	.	.	.	.	.	.	.	.	.	.	.	.	.	.	.	.
!	!	!	!	!	!	!	!	!	!	!LO:LB:g=original	!	!	!	!	!	!	!	!	!	!	!	!	!	!	!
=33	=33	=33	=33	=33	=33	=33	=33	=33	=33	=33	=33	=33	=33	=33	=33	=33	=33	=33	=33	=33	=33	=33	=33	=33	=33
!	!	!	!	!	!	!	!	!	!	!LO:TX:a:t=2	!	!	!	!	!	!	!	!	!	!	!	!	!	!	!
8G\	.	4B/	.	4d/	.	4ff\	.	.	.	0r	.	.	.	.	.	.	1ryy	.	.	1r	.	.	.	1r	.
8r	.	.	.	.	.	.	.	.	.	.	.	.	.	.	.	.	.	.	.	.	.	.	.	.	.
4r	.	4r	.	4r	.	8dd\L	.	.	.	.	.	.	.	.	.	.	.	.	.	.	.	.	.	.	.
.	.	.	.	.	.	8b\J	.	.	.	.	.	.	.	.	.	.	.	.	.	.	.	.	.	.	.
!	!	!	!	!	!	!LO:LB:g=original	!	!	!	!	!	!	!	!	!	!	!	!	!	!	!	!	!	!	!
8r	.	8r	.	8r	.	8g/L	.	.	.	.	.	.	.	.	.	.	.	.	.	.	.	.	.	.	.
8G\L	7_	8B/L	.	8d/L	.	8f/	.	.	.	.	.	.	.	.	.	.	.	.	.	.	.	.	.	.	.
8G\	.	8B/	.	8d/	.	8f/	.	.	.	.	.	.	.	.	.	.	.	.	.	.	.	.	.	.	.
8G\J	.	8B/J	.	8d/J	.	8f/J	.	.	.	.	.	.	.	.	.	.	.	.	.	.	.	.	.	.	.
=34	=34	=34	=34	=34	=34	=34	=34	=34	=34	=34	=34	=34	=34	=34	=34	=34	=34	=34	=34	=34	=34	=34	=34	=34	=34
!	!	!	!	!	!	!LO:TX:t=P:problem:mixed beam	!	!	!	!	!	!	!	!	!	!	!	!	!	!	!	!	!	!	!
4G\	x	8B/	.	4d/	.	8f\L	.	1r	.	.	.	.	1r	.	1r	.	1ryy	1r	.	1r	.	1r	1r	1r	1r
.	.	4r	.	.	.	8ff\	.	.	.	.	.	.	.	.	.	.	.	.	.	.	.	.	.	.	.
4r	.	.	.	4r	.	8dd\	.	.	.	.	.	.	.	.	.	.	.	.	.	.	.	.	.	.	.
.	.	8r	.	.	.	8b\J	.	.	.	.	.	.	.	.	.	.	.	.	.	.	.	.	.	.	.
!	!	!LO:LB:g=original	!	!	!	!	!	!	!	!	!	!	!	!	!	!	!	!	!	!	!	!	!	!	!
8r	.	8r	.	8r	.	16g/LL	.	.	.	.	.	.	.	.	.	.	.	.	.	.	.	.	.	.	.
.	.	.	.	.	.	16f/	.	.	.	.	.	.	.	.	.	.	.	.	.	.	.	.	.	.	.
8G\L	7 5	8B/L	.	8d/L	.	16d/	.	.	.	.	.	.	.	.	.	.	.	.	.	.	.	.	.	.	.
.	.	.	.	.	.	16B/JJ	.	.	.	.	.	.	.	.	.	.	.	.	.	.	.	.	.	.	.
8B\	.	8d/	.	8B/	.	16G/LL	.	.	.	.	.	.	.	.	.	.	.	.	.	.	.	.	.	.	.
.	.	.	.	.	.	16B/	.	.	.	.	.	.	.	.	.	.	.	.	.	.	.	.	.	.	.
8G\J	.	8B/J	.	8d/J	.	16d/	.	.	.	.	.	.	.	.	.	.	.	.	.	.	.	.	.	.	.
.	.	.	.	.	.	16f/JJ	.	.	.	.	.	.	.	.	.	.	.	.	.	.	.	.	.	.	.
!LO:LB:g=original	!	!	!	!	!	!	!	!	!	!	!	!	!	!	!	!	!	!	!	!	!	!	!	!	!
=35	=35	=35	=35	=35	=35	=35	=35	=35	=35	=35	=35	=35	=35	=35	=35	=35	=35	=35	=35	=35	=35	=35	=35	=35	=35
!LO:TX:a:i:t=Tutti	!	!	!	!	!LO:DY:t=for	!	!LO:DY:t=for	!	!	!	!	!	!	!	!	!	!	!	!	!	!	!	!	!	!
4c\	.	4c\	.	4e 4G/	f	4cc 4e\	f	4C/	Cre-	4G/	Cre-	.	4e\	Cre-	4cc\	Cre-	1ryy	4e/	.	4cc\	.	4e/	4cc\	4g/	4ee\
4C/	.	4c\	.	4e 4G/	.	4cc 4e\	.	4C/	-do	4G/	-do	.	4e\	-do	4cc\	-do	.	4e/	.	4cc\	.	4e/	4cc\	4g/	4ee\
2r	.	2r	.	2r	.	16b\LL	.	2r	.	2r	.	.	2r	.	2r	.	.	2r	.	2r	.	2r	2r	2r	2r
.	.	.	.	.	.	16cc\	.	.	.	.	.	.	.	.	.	.	.	.	.	.	.	.	.	.	.
.	.	.	.	.	.	16aa\	.	.	.	.	.	.	.	.	.	.	.	.	.	.	.	.	.	.	.
.	.	.	.	.	.	16gg\JJ	.	.	.	.	.	.	.	.	.	.	.	.	.	.	.	.	.	.	.
.	.	.	.	.	.	16ff\LL	.	.	.	.	.	.	.	.	.	.	.	.	.	.	.	.	.	.	.
.	.	.	.	.	.	16ee\	.	.	.	.	.	.	.	.	.	.	.	.	.	.	.	.	.	.	.
.	.	.	.	.	.	16dd\	.	.	.	.	.	.	.	.	.	.	.	.	.	.	.	.	.	.	.
.	.	.	.	.	.	16cc\JJ	.	.	.	.	.	.	.	.	.	.	.	.	.	.	.	.	.	.	.
!	!	!	!	!	!	!	!	!	!	!	!	!	!LO:LB:g=original	!	!	!	!	!LO:LB:g=original	!	!LO:LB:g=original	!	!	!	!	!
=36	=36	=36	=36	=36	=36	=36	=36	=36	=36	=36	=36	=36	=36	=36	=36	=36	=36	=36	=36	=36	=36	=36	=36	=36	=36
*	*	*	*	*	*	*	*	*	*ij	*	*	*	*	*ij	*	*	*	*	*	*	*	*	*	*	*
4D\	.	4d\	.	4f 4G/	.	4b\	.	4D/	Cre-	4G/	Cre-	.	4f\	Cre-	4b\	Cre-	1ryy	4g/	.	4g/	.	4g/	4gg\	4b\	4gg\
4D\	.	4d\	.	4f 4G/	.	4b\	.	4D/	-do	4G/	-do	.	4f\	-do	4b\	-do	.	4g/	.	4g/	.	4g/	4gg\	4b\	4gg\
*	*	*	*	*	*	*	*	*	*Xij	*	*	*	*	*Xij	*	*	*	*	*	*	*	*	*	*	*
2r	.	2r	.	2r	.	16b\LL	.	2r	.	2r	.	.	2r	.	2r	.	.	2r	.	2r	.	2r	2r	2r	2r
.	.	.	.	.	.	16dd\	.	.	.	.	.	.	.	.	.	.	.	.	.	.	.	.	.	.	.
.	.	.	.	.	.	16gg\	.	.	.	.	.	.	.	.	.	.	.	.	.	.	.	.	.	.	.
.	.	.	.	.	.	16ff\JJ	.	.	.	.	.	.	.	.	.	.	.	.	.	.	.	.	.	.	.
.	.	.	.	.	.	16ee\LL	.	.	.	.	.	.	.	.	.	.	.	.	.	.	.	.	.	.	.
.	.	.	.	.	.	16dd\	.	.	.	.	.	.	.	.	.	.	.	.	.	.	.	.	.	.	.
.	.	.	.	.	.	16cc\	.	.	.	.	.	.	.	.	.	.	.	.	.	.	.	.	.	.	.
.	.	.	.	.	.	16b\JJ	.	.	.	.	.	.	.	.	.	.	.	.	.	.	.	.	.	.	.
=37	=37	=37	=37	=37	=37	=37	=37	=37	=37	=37	=37	=37	=37	=37	=37	=37	=37	=37	=37	=37	=37	=37	=37	=37	=37
*tremolo	*	*tremolo	*	*tremolo	*	*	*	*	*	*	*	*	*	*	*	*	*	*tremolo	*	*tremolo	*	*	*	*	*
8C/L	5 3	8g\L	.	16e/LL	.	4.cc\	.	2C/	Qui	2G/	qui	.	4.e\	qui	4.cc\	qui	1ryy	8c/L	.	8cc\L	.	2ee\	2gg\	2cc\	2ee\
.	.	.	.	16e/	.	.	.	.	.	.	.	.	.	.	.	.	.	.	.	.	.	.	.	.	.
8C/	.	8g\	.	16e/	.	.	.	.	.	.	.	.	.	.	.	.	.	8c/	.	8cc\	.	.	.	.	.
.	.	.	.	16e/JJ	.	.	.	.	.	.	.	.	.	.	.	.	.	.	.	.	.	.	.	.	.
8C/	.	8g\	.	16g/LL	.	.	.	.	.	.	.	.	.	.	.	.	.	8c/	.	8cc\	.	.	.	.	.
.	.	.	.	16g/	.	.	.	.	.	.	.	.	.	.	.	.	.	.	.	.	.	.	.	.	.
8C/J	.	8g\J	.	16g/	.	16dd\LL	.	.	.	.	.	.	16f\LL	.	(16dd\LL	.	.	8c/J	.	8cc\J	.	.	.	.	.
.	.	.	.	16g/JJ	.	16ee\JJ	.	.	.	.	.	.	16g\JJ	.	16ee\JJ)	.	.	.	.	.	.	.	.	.	.
*	*	*	*	*	*	*tremolo	*	*	*	*	*	*	*	*	*	*	*	*	*	*	*	*	*	*	*
!	!	!	!	!	!	!LO:LB:g=original	!	!	!	!	!	!	!	!	!	!	!	!	!	!	!	!	!	!	!
8C/L	6 4	8f\L	.	16a/LL	.	8ff\L	.	4C/	pro-	4c\	pro-	.	4a\	pro-	4ff\	pro-	.	8c/L	.	8cc\L	.	2cc\	2ff\	2a/	2ff\
.	.	.	.	16a/	.	.	.	.	.	.	.	.	.	.	.	.	.	.	.	.	.	.	.	.	.
8C/	.	8f\	.	16a/	.	8ff\	.	.	.	.	.	.	.	.	.	.	.	8c/	.	8cc\	.	.	.	.	.
.	.	.	.	16a/	.	.	.	.	.	.	.	.	.	.	.	.	.	.	.	.	.	.	.	.	.
8C/	.	8f\	.	16a/	.	8ff\	.	8C/	-pter	8c\	-pter	.	8a\	-pter	8ff\	-pter	.	8c/	.	8cc\	.	.	.	.	.
.	.	.	.	16a/	.	.	.	.	.	.	.	.	.	.	.	.	.	.	.	.	.	.	.	.	.
8C/J	.	8f\J	.	16a/	.	8ff\J	.	8C/	nos	8c\	nos	.	8a\	nos	8ff\	nos	.	8c/J	.	8cc\J	.	.	.	.	.
.	.	.	.	16a/JJ	.	.	.	.	.	.	.	.	.	.	.	.	.	.	.	.	.	.	.	.	.
*	*	*Xtremolo	*	*	*	*Xtremolo	*	*	*	*	*	*	*	*	*	*	*	*	*	*	*	*	*	*	*
=38	=38	=38	=38	=38	=38	=38	=38	=38	=38	=38	=38	=38	=38	=38	=38	=38	=38	=38	=38	=38	=38	=38	=38	=38	=38
8C/L	5 3	8e\L	.	16g/LL	.	4.ee\	.	4.C/	ho-	4.c\	ho-	.	4.g\	ho-	4.ee\	ho-	1ryy	8c/L	.	8cc\L	.	2cc\	2ee\	2g/	2ee\
.	.	.	.	16g/	.	.	.	.	.	.	.	.	.	.	.	.	.	.	.	.	.	.	.	.	.
8C/	.	8e\	.	16g/	.	.	.	.	.	.	.	.	.	.	.	.	.	8c/	.	8cc\	.	.	.	.	.
.	.	.	.	16g/	.	.	.	.	.	.	.	.	.	.	.	.	.	.	.	.	.	.	.	.	.
8C/	.	8c\	.	16g/	.	.	.	.	.	.	.	.	.	.	.	.	.	8c/	.	8cc\	.	.	.	.	.
.	.	.	.	16g/	.	.	.	.	.	.	.	.	.	.	.	.	.	.	.	.	.	.	.	.	.
8C/J	.	8c\J	.	16g/	.	16ff\LL	.	8C/	-mi-	8c\	-mi-	.	8g\	-mi-	8ee\	-mi-	.	8c/J	.	8cc\J	.	.	.	.	.
.	.	.	.	16g/JJ	.	16gg\JJ	.	.	.	.	.	.	.	.	.	.	.	.	.	.	.	.	.	.	.
*	*	*tremolo	*	*	*	*tremolo	*	*	*	*	*	*	*	*	*	*	*	*	*	*	*	*tremolo	*tremolo	*	*
8C/L	6 4	8c\L	.	16f/LL	.	8aa\L	.	4C/	-nes	4.c\	-nes	.	4.a\	-nes	4.ff\	-nes	.	8c/L	.	8cc\L	.	8c/L	8cc\L	2ff\	2aa\
.	.	.	.	16f/	.	.	.	.	.	.	.	.	.	.	.	.	.	.	.	.	.	.	.	.	.
8C/	.	8c\	.	16f/	.	8aa\	.	.	.	.	.	.	.	.	.	.	.	8c/	.	8cc\	.	8c/	8cc\	.	.
.	.	.	.	16f/	.	.	.	.	.	.	.	.	.	.	.	.	.	.	.	.	.	.	.	.	.
8C/	.	8c\	.	16f/	.	8aa\	.	4C/	et	.	.	.	.	.	.	.	.	8c/	.	8cc\	.	8c/	8cc\	.	.
.	.	.	.	16f/	.	.	.	.	.	.	.	.	.	.	.	.	.	.	.	.	.	.	.	.	.
8C/J	.	8c\J	.	16f/	.	8aa\J	.	.	.	8c\	e(t)	.	8a\	et	8ff\	et	.	8c/J	.	8cc\J	.	8c/J	8cc\J	.	.
.	.	.	.	16f/JJ	.	.	.	.	.	.	.	.	.	.	.	.	.	.	.	.	.	.	.	.	.
*Xtremolo	*	*	*	*	*	*Xtremolo	*	*	*	*	*	*	*	*	*	*	*	*	*	*	*	*	*	*	*
!	!	!	!	!LO:LB:g=original	!	!	!	!	!	!	!	!	!	!	!	!	!	!	!	!	!	!	!	!	!
=39	=39	=39	=39	=39	=39	=39	=39	=39	=39	=39	=39	=39	=39	=39	=39	=39	=39	=39	=39	=39	=39	=39	=39	=39	=39
!LO:TX:t=P:problem:mixed beam	!	!	!	!	!	!	!	!	!	!	!	!	!	!	!	!	!	!	!	!	!	!	!	!	!
8C/L	5_ 3_	8c\L	.	16e/LL	.	8.gg\L	.	4C/	pro-	4c\	pro-	.	4g\	pro-	4ee\	pro-	1ryy	8c/L	.	8cc\L	.	8c/L	8cc\L	2ee\	2gg\
.	.	.	.	16e/	.	.	.	.	.	.	.	.	.	.	.	.	.	.	.	.	.	.	.	.	.
8c\	.	8c\	.	16e/	.	.	.	.	.	.	.	.	.	.	.	.	.	8c/	.	8cc\	.	8c/	8cc\	.	.
.	.	.	.	16e/	.	32aa\LL	.	.	.	.	.	.	.	.	.	.	.	.	.	.	.	.	.	.	.
.	.	.	.	.	.	32bb\JJJ	.	.	.	.	.	.	.	.	.	.	.	.	.	.	.	.	.	.	.
8c\	.	8c\	.	16e/	.	16ccc\LL	.	4C/	-pter	4c\	-pter	.	4g\	-pter	4ee\	-pter	.	8c/	.	8cc\	.	8c/	8cc\	.	.
.	.	.	.	16e/	.	16gg\	.	.	.	.	.	.	.	.	.	.	.	.	.	.	.	.	.	.	.
8c\J	.	8c\J	.	16e/	.	16ee\	.	.	.	.	.	.	.	.	.	.	.	8c/J	.	8cc\J	.	8c/J	8cc\J	.	.
.	.	.	.	16e/JJ	.	16cc\JJ	.	.	.	.	.	.	.	.	.	.	.	.	.	.	.	.	.	.	.
*tremolo	*	*	*	*	*	*tremolo	*	*	*	*	*	*	*	*	*	*	*	*	*	*	*	*	*	*	*
!	!	!	!	!	!	!	!	!LO:LB:g=original	!	!	!	!	!	!	!LO:LB:g=original	!	!	!	!	!	!	!	!	!	!
8c\L	6 4	8c\L	.	16a/LL	.	8ff\L	.	4c\	noſ-	4c\	noſ-	.	4a\	noſ-	4ff\	noſ-	.	8c/L	.	8cc\L	.	8c/L	8cc\L	2a/	2ff\
.	.	.	.	16a/	.	.	.	.	.	.	.	.	.	.	.	.	.	.	.	.	.	.	.	.	.
8c\	.	8c\	.	16a/	.	8ff\	.	.	.	.	.	.	.	.	.	.	.	8c/	.	8cc\	.	8c/	8cc\	.	.
.	.	.	.	16a/	.	.	.	.	.	.	.	.	.	.	.	.	.	.	.	.	.	.	.	.	.
8c\	.	8c\	.	16a/	.	8ff\	.	8c\	-tram	8c\	-tram	.	8a\	-tram	8ff\	-tram	.	8c/	.	8cc\	.	8c/	8cc\	.	.
.	.	.	.	16a/	.	.	.	.	.	.	.	.	.	.	.	.	.	.	.	.	.	.	.	.	.
8c\J	.	8c\J	.	16a/	.	8ff\J	.	8c\	sa-	8c\	sa-	.	8a\	sa-	8ff\	sa-	.	8c/J	.	8cc\J	.	8c/J	8cc\J	.	.
.	.	.	.	16a/JJ	.	.	.	.	.	.	.	.	.	.	.	.	.	.	.	.	.	.	.	.	.
*	*	*	*	*	*	*Xtremolo	*	*	*	*	*	*	*	*	*	*	*	*Xtremolo	*	*	*	*	*	*	*
!	!	!	!	!	!	!	!	!	!	!LO:LB:g=original	!	!	!	!	!	!	!	!	!	!	!	!	!	!	!
=40	=40	=40	=40	=40	=40	=40	=40	=40	=40	=40	=40	=40	=40	=40	=40	=40	=40	=40	=40	=40	=40	=40	=40	=40	=40
8c\L	5 3	8c\L	.	16g/LL	.	8ee\L	.	4c\	-lu-	4c\	-lu-	.	4g\	-lu-	4ee\	-lu-	1ryy	2c/	.	8cc\L	.	8c/L	8cc\L	4f/	4ee\
.	.	.	.	16g/	.	.	.	.	.	.	.	.	.	.	.	.	.	.	.	.	.	.	.	.	.
8c\	.	8c\	.	16g/	.	8ee\	.	.	.	.	.	.	.	.	.	.	.	.	.	8cc\	.	8c/	8cc\	.	.
.	.	.	.	16g/JJ	.	.	.	.	.	.	.	.	.	.	.	.	.	.	.	.	.	.	.	.	.
8c\	6 4	8c\	.	16f/LL	.	8aa\	.	8c\	-tem	8c\	-tem	.	8a\	-tem	8ff\	-tem	.	.	.	8cc\	.	8c/	8cc\	4ff\	4aa\
.	.	.	.	16f/	.	.	.	.	.	.	.	.	.	.	.	.	.	.	.	.	.	.	.	.	.
8c\J	.	8c\J	.	16f/	.	8aa\J	.	8c\	des-	8c\	de-	.	8a\	des-	8ff\	de-	.	.	.	8cc\J	.	8c/J	8cc\J	.	.
.	.	.	.	16f/JJ	.	.	.	.	.	.	.	.	.	.	.	.	.	.	.	.	.	.	.	.	.
*	*	*	*	*	*	*	*	*	*	*	*	*	*	*	*	*	*	*	*	*Xtremolo	*	*Xtremolo	*Xtremolo	*	*
!	!	!	!	!	!	!	!	!	!	!	!	!	!LO:LB:g=original	!	!	!	!	!	!	!	!	!	!	!	!
8c\L	5 3	8c\L	.	16e/LL	.	8gg\L	.	(4c\	-cen-	(4d\	-scen-	.	(4g\	-cen-	(4ee\	-scen-	.	8c/L	.	8cc\L	.	8c/L	8cc\L	4ee\	4gg\
.	.	.	.	16e/	.	.	.	.	.	.	.	.	.	.	.	.	.	.	.	.	.	.	.	.	.
8c\	.	8c\	.	16e/	.	8gg\	.	.	.	.	.	.	.	.	.	.	.	8c/	.	8cc\	.	8c/	8cc\	.	.
.	.	.	.	16e/JJ	.	.	.	.	.	.	.	.	.	.	.	.	.	.	.	.	.	.	.	.	.
8c\	4 2	8c\	.	16f/LL	.	8bb\	.	4G\)	.	4B\)	.	.	4f\)	.	4dd\)	.	.	8g/	.	8dd\	.	8g/	8dd\	4ff\	4ff\
.	.	.	.	16f/	.	.	.	.	.	.	.	.	.	.	.	.	.	.	.	.	.	.	.	.	.
8c\J	.	8c\J	.	16f/	.	8bb\J	.	.	.	.	.	.	.	.	.	.	.	8g/J	.	8dd\J	.	8g/J	8dd\J	.	.
.	.	.	.	16f/JJ	.	.	.	.	.	.	.	.	.	.	.	.	.	.	.	.	.	.	.	.	.
*Xtremolo	*	*Xtremolo	*	*Xtremolo	*	*	*	*	*	*	*	*	*	*	*	*	*	*	*	*	*	*	*	*	*
!	!	!	!	!	!	!	!	!	!	!	!	!	!	!	!	!	!	!	!	!	!	!	!LO:LB:g=original	!LO:LB:g=original	!LO:LB:g=original
=41	=41	=41	=41	=41	=41	=41	=41	=41	=41	=41	=41	=41	=41	=41	=41	=41	=41	=41	=41	=41	=41	=41	=41	=41	=41
!	!	!LO:TX:t=P:problem:mixed beam	!	!	!	!	!	!	!	!	!	!	!	!	!	!	!	!	!	!	!	!	!	!	!
4c\	.	8c\L	.	4e/	.	16ccc\LL	.	4C/	-dit	4c\	-dit	.	4g\	-dit	4ee\	-dit	1ryy	4e/	.	4cc\	.	4cc\	4ee\	4ee\	4ee\
.	.	.	.	.	.	16bb\	.	.	.	.	.	.	.	.	.	.	.	.	.	.	.	.	.	.	.
.	.	8C/J	.	.	.	16aa\	.	.	.	.	.	.	.	.	.	.	.	.	.	.	.	.	.	.	.
.	.	.	.	.	.	16gg\JJ	.	.	.	.	.	.	.	.	.	.	.	.	.	.	.	.	.	.	.
8r	.	8r	.	8r	.	16ff\LL	.	8r	.	8r	.	.	8r	.	8r	.	.	8r	.	8r	.	8r	8r	8r	8r
.	.	.	.	.	.	16ee\	.	.	.	.	.	.	.	.	.	.	.	.	.	.	.	.	.	.	.
8c\	.	8c/	.	8e/	.	16dd\	.	8c\	des-	8c\	de	.	8g\	de-	8ee\	de-	.	8e/	.	8cc\	.	8cc\	8ee\	8ee\	8gg\
.	.	.	.	.	.	16cc\JJ	.	.	.	.	.	.	.	.	.	.	.	.	.	.	.	.	.	.	.
*	*	*	*	*tremolo	*	*	*	*	*	*	*	*	*	*	*2\right	*	*	*tremolo	*	*tremolo	*	*	*	*	*
!	!	!	!	!	!	!	!	!	!	!	!	!	!	!	!	!	!	!	!	!LO:TX:a:t=d	!	!	!	!	!
8B\L	6	8B/L	.	16d/LL	.	16ff#X\LL	.	2G\	-cen-	2B\	cae-	.	2g\	-scen-	2dd\	-scen-	.	8e/L	.	8dd\L	.	2g/	2dd\	2dd\	2gg\
.	.	.	.	16g/	.	16gg\	.	.	.	.	.	.	.	.	.	.	.	.	.	.	.	.	.	.	.
8G\	.	8G/	.	16d/	.	16aa\	.	.	.	.	.	.	.	.	.	.	.	8e/	.	8dd\	.	.	.	.	.
.	.	.	.	16g/	.	16gg\JJ	.	.	.	.	.	.	.	.	.	.	.	.	.	.	.	.	.	.	.
8B\	.	8B/	.	16d/	.	16dd\LL	.	.	.	.	.	.	.	.	.	.	.	8e/	.	8dd\	.	.	.	.	.
.	.	.	.	16g/	.	16ee\	.	.	.	.	.	.	.	.	.	.	.	.	.	.	.	.	.	.	.
8G\J	7 5	8G/J	.	16d/	.	16ffn\	.	.	.	.	.	.	.	.	.	.	.	8e/J	.	8dd\J	.	.	.	.	.
.	.	.	.	16g/JJ	.	16dd\JJ	.	.	.	.	.	.	.	.	.	.	.	.	.	.	.	.	.	.	.
*	*	*	*	*	*	*	*	*	*	*	*	*	*	*	*	*	*	*Xtremolo	*	*Xtremolo	*	*	*	*	*
!	!	!	!	!	!	!LO:LB:g=original	!	!	!	!	!	!	!	!	!	!	!	!	!	!	!	!	!	!	!
=42	=42	=42	=42	=42	=42	=42	=42	=42	=42	=42	=42	=42	=42	=42	=42	=42	=42	=42	=42	=42	=42	=42	=42	=42	=42
!LO:TX:t=P:problem:mixed beam	!	!LO:TX:t=P:problem:mixed beam	!	!	!	!	!	!	!	!	!	!	!	!	!	!	!	!	!	!	!	!	!	!	!
8c\L	.	8c\L	.	16e/LL	.	16ff\LL	.	4C/	-dit	4c\	-lis	.	8g\	dit	4ee\	dit	1ryy	4cc\	.	4ee\	.	4cc\	4ee\	4ee\	4gg\
.	.	.	.	16g/	.	16gg\	.	.	.	.	.	.	.	.	.	.	.	.	.	.	.	.	.	.	.
8C/J	.	8C/J	.	16e/	.	16aa\	.	.	.	.	.	.	8r	.	.	.	.	.	.	.	.	.	.	.	.
.	.	.	.	16g/	.	16gg\JJ	.	.	.	.	.	.	.	.	.	.	.	.	.	.	.	.	.	.	.
8r	.	8r	.	16e/	.	16ccc\LL	.	8r	.	8r	.	.	8r	.	8r	.	.	8r	.	8r	.	8r	8r	8r	8r
.	.	.	.	16g/	.	16gg\	.	.	.	.	.	.	.	.	.	.	.	.	.	.	.	.	.	.	.
8c\	.	8c\	.	16e/	.	16ee\	.	8c\	de	8c\	de-	.	8g\	de-	8ee\	de-	.	8e/	.	8cc\	.	8g/	8ee\	8ee\	8gg\
.	.	.	.	16g/JJ	.	16cc\JJ	.	.	.	.	.	.	.	.	.	.	.	.	.	.	.	.	.	.	.
*	*	*	*	*	*	*	*	*	*	*	*	*	*	*	*	*	*	*tremolo	*	*tremolo	*	*tremolo	*	*	*
8B\L	6	8B/L	.	16d/LL	.	16ff#X\LL	.	2G\	cae-	2B\	-scen-	.	2g\	-scen-	2dd\	-scen-	.	8g/L	.	8dd\L	.	8g/L	2dd\	2dd\	2gg\
.	.	.	.	16g/	.	16gg\	.	.	.	.	.	.	.	.	.	.	.	.	.	.	.	.	.	.	.
8G\	.	8G/	.	16d/	.	16aa\	.	.	.	.	.	.	.	.	.	.	.	8g/	.	8dd\	.	8g/	.	.	.
.	.	.	.	16g/	.	16gg\JJ	.	.	.	.	.	.	.	.	.	.	.	.	.	.	.	.	.	.	.
8B\	.	8B/	.	16d/	.	16dd\LL	.	.	.	.	.	.	.	.	.	.	.	8g/	.	8dd\	.	8g/	.	.	.
.	.	.	.	16g/	.	16ee\	.	.	.	.	.	.	.	.	.	.	.	.	.	.	.	.	.	.	.
8G\J	7	8G/J	.	16d/	.	16ffn\	.	.	.	.	.	.	.	.	.	.	.	8g/J	.	8dd\J	.	8g/J	.	.	.
.	.	.	.	16g/JJ	.	16dd\JJ	.	.	.	.	.	.	.	.	.	.	.	.	.	.	.	.	.	.	.
*	*	*	*	*Xtremolo	*	*	*	*	*	*	*	*	*	*	*	*	*	*Xtremolo	*	*Xtremolo	*	*Xtremolo	*	*	*
!	!	!LO:LB:g=original	!	!	!	!	!	!	!	!	!	!	!	!	!	!	!	!	!	!	!	!	!	!	!
=43	=43	=43	=43	=43	=43	=43	=43	=43	=43	=43	=43	=43	=43	=43	=43	=43	=43	=43	=43	=43	=43	=43	=43	=43	=43
*	*	*	*	*	*	*	*	*	*	*	*	*	*	*	*	*	*	*	*	*	*	*	*tremolo	*	*
!LO:TX:t=P:problem:zbędny takt w cor 1	!	!LO:TX:t=P:problem:zbędny takt w cor 1	!	!LO:TX:t=P:problem:zbędny takt w cor 1	!	!LO:TX:t=P:problem:zbędny takt w cor 1	!	!LO:TX:t=P:problem:zbędny takt w cor 1	!	!LO:TX:t=P:problem:zbędny takt w cor 1	!	!	!LO:TX:t=P:problem:zbędny takt w cor 1	!	!LO:TX:t=P:problem:zbędny takt w cor 1	!	!	!LO:TX:t=P:problem:zbędny takt w cor 1	!	!LO:TX:t=P:problem:zbędny takt w cor 1	!	!LO:TX:t=P:problem:zbędny takt w cor 1	!LO:TX:a:t=P:problem:zbędny takt	!LO:TX:t=P:problem:zbędny takt w cor 1	!LO:TX:t=P:problem:zbędny takt w cor 1
1ryy	.	1ryy	.	1ryy	.	1ryy	.	1ryy	.	1ryy	.	.	1ryy	.	1ryy	.	1ryy	1ryy	.	1ryy	.	1ryy	8ee\L	1ryy	1ryy
.	.	.	.	.	.	.	.	.	.	.	.	.	.	.	.	.	.	.	.	.	.	.	8ee\J	.	.
*	*	*	*	*	*	*	*	*	*	*	*	*	*	*	*	*	*	*	*	*	*	*	*Xtremolo	*	*
.	.	.	.	.	.	.	.	.	.	.	.	.	.	.	.	.	.	.	.	.	.	.	8r	.	.
.	.	.	.	.	.	.	.	.	.	.	.	.	.	.	.	.	.	.	.	.	.	.	8ee\	.	.
.	.	.	.	.	.	.	.	.	.	.	.	.	.	.	.	.	.	.	.	.	.	.	2dd\	.	.
=44	=44	=44	=44	=44	=44	=44	=44	=44	=44	=44	=44	=44	=44	=44	=44	=44	=44	=44	=44	=44	=44	=44	=44	=44	=44
!	!	!	!	!LO:TX:t=P:problem:mixed beam	!	!	!	!	!	!	!	!	!	!	!	!	!	!	!	!	!	!	!	!	!
8c\L	.	8c\L	.	16e/LL	.	16ee\LL	.	4c\	-lis	4c\	-dit	.	4g\	-dit	4ee\	-dit	1ryy	4cc\	.	4ee\	.	4cc\	4ee\	4ee\	4gg\
.	.	.	.	16cc\	.	16gg\	.	.	.	.	.	.	.	.	.	.	.	.	.	.	.	.	.	.	.
8E\	6	8e\	.	16cc\	.	16ccc\	.	.	.	.	.	.	.	.	.	.	.	.	.	.	.	.	.	.	.
.	.	.	.	16cc\JJ	.	16gg\JJ	.	.	.	.	.	.	.	.	.	.	.	.	.	.	.	.	.	.	.
*	*	*	*	*tremolo	*	*	*	*	*	*	*	*	*	*	*	*	*	*	*	*	*	*	*	*	*
8F\	.	8f\	.	16cc\LL	.	16aa\LL	.	4F\	des-	4c\	de	.	4a\	de	4cc\	de	.	4r	.	4r	.	4cc\	4cc\	4cc\	4aa\
.	.	.	.	16cc\	.	16a\	.	.	.	.	.	.	.	.	.	.	.	.	.	.	.	.	.	.	.
8F\J	.	8f\J	.	16cc\	.	16ff\	.	.	.	.	.	.	.	.	.	.	.	.	.	.	.	.	.	.	.
.	.	.	.	16cc\JJ	.	16dd\JJ	.	.	.	.	.	.	.	.	.	.	.	.	.	.	.	.	.	.	.
!LO:LB:g=original	!	!	!	!	!	!	!	!	!	!	!	!	!	!	!	!	!	!	!	!	!	!	!	!	!
!LO:TX:t=P:problem:mixed beam	!	!	!	!	!	!	!	!	!	!	!	!	!	!	!	!	!	!	!	!	!	!	!	!	!
8G\L	6 4	8e\L	.	16cc\LL	.	16ee\LL	.	2G\	-cen-	(4e\	scen-	.	2g\	cae-	(4cc\	cae-	.	4e/	.	4cc\	.	4cc\	4ee\	4cc\	4ee\
.	.	.	.	16cc\	.	16gg\	.	.	.	.	.	.	.	.	.	.	.	.	.	.	.	.	.	.	.
8G\	.	8e\	.	16cc\	.	16cc\	.	.	.	.	.	.	.	.	.	.	.	.	.	.	.	.	.	.	.
.	.	.	.	16cc\JJ	.	16ee\JJ	.	.	.	.	.	.	.	.	.	.	.	.	.	.	.	.	.	.	.
8GG/	3	8f\	.	16b\LL	.	16dd\LL	.	.	.	4d\)	.	.	.	.	4b\)	.	.	4g/	.	4dd\	.	4g/	4dd\	4b\	4dd\
.	.	.	.	16b\	.	16ff\	.	.	.	.	.	.	.	.	.	.	.	.	.	.	.	.	.	.	.
8GG/J	.	8f\J	.	16b\	.	16b\	.	.	.	.	.	.	.	.	.	.	.	.	.	.	.	.	.	.	.
.	.	.	.	16b\JJ	.	16dd\JJ	.	.	.	.	.	.	.	.	.	.	.	.	.	.	.	.	.	.	.
!	!	!	!	!	!	!	!	!LO:LB:g=original	!	!	!	!	!	!	!LO:LB:g=original	!	!	!	!	!	!	!LO:LB:g=original	!	!	!
=45	=45	=45	=45	=45	=45	=45	=45	=45	=45	=45	=45	=45	=45	=45	=45	=45	=45	=45	=45	=45	=45	=45	=45	=45	=45
*	*	*	*	*	*	*	*	*	*	*	*	*	*	*	*	*	*	*	*	*	*	*	*tremolo	*tremolo	*
!	!	!	!	!	!	!	!	!	!	!	!	!	!	!	!	!	!	!	!	!	!	!	!LO:TX:a:t=c	!	!
8C\L	.	8e\L	.	16cc\LL	.	16cc\LL	.	4C/	-dit	4e\	-dit	.	4g\	-lis	4cc\	-lis	1ryy	4cc\	.	4cc\	.	8cc\L	8cc\L	8cc\L	8ee\L
.	.	.	.	16cc\	.	16ee\	.	.	.	.	.	.	.	.	.	.	.	.	.	.	.	.	.	.	.
8E\	6	8e\	.	16cc\	.	16gg\	.	.	.	.	.	.	.	.	.	.	.	.	.	.	.	8cc\	8cc\	8cc\	8gg\
.	.	.	.	16cc\	.	16ccc\JJ	.	.	.	.	.	.	.	.	.	.	.	.	.	.	.	.	.	.	.
.	.	.	.	.	.	8qbb/	.	.	.	.	.	.	.	.	.	.	.	.	.	.	.	.	.	.	.
8F\	.	8f\	.	16cc\	.	8aa\L	.	4F\	de	4f\	de	.	4a\	de	4cc\	de	.	4r	.	4r	.	8cc\	8cc\	8cc\	8aa\
.	.	.	.	16cc\	.	.	.	.	.	.	.	.	.	.	.	.	.	.	.	.	.	.	.	.	.
8F\J	.	8f\J	.	16cc\	.	16gg\L	.	.	.	.	.	.	.	.	.	.	.	.	.	.	.	8cc\J	8cc\J	8cc\J	8ff\J
.	.	.	.	16cc\JJ	.	16ff\JJ	.	.	.	.	.	.	.	.	.	.	.	.	.	.	.	.	.	.	.
*	*	*tremolo	*	*Xtremolo	*	*	*	*	*	*	*	*	*	*	*	*	*	*	*	*	*	*	*Xtremolo	*Xtremolo	*
!LO:TX:t=P:problem:mixed beam	!	!	!	!	!	!	!	!	!	!	!	!	!	!	!	!	!	!	!	!	!	!	!	!	!
8G\L	6 4	8g\L	.	16cc\LL	.	8ee\L	.	2G\	cae-	(4e\	cae-	.	2g\	cae-	4cc\	cae-	.	4e/	.	4cc\	.	4cc\	4dd\	8cc\L	4ee\
.	.	.	.	16ee\	.	.	.	.	.	.	.	.	.	.	.	.	.	.	.	.	.	.	.	.	.
8G\	.	8g\	.	16cc\	.	8ccc\	.	.	.	.	.	.	.	.	.	.	.	.	.	.	.	.	.	8ee\	.
.	.	.	.	16ee\JJ	.	.	.	.	.	.	.	.	.	.	.	.	.	.	.	.	.	.	.	.	.
8GG/	5 3	8g\	.	8dd\L	.	8dd\	.	.	.	4d\)	.	.	.	.	4b\	.	.	4g/	.	4dd\	.	4g/	4dd\	8dd\	4dd\
8GG/J	.	8g\J	.	8dd\J	.	8bb\J	.	.	.	.	.	.	.	.	.	.	.	.	.	.	.	.	.	8b\J	.
*	*	*Xtremolo	*	*	*	*	*	*	*	*	*	*	*	*	*	*	*	*	*	*	*	*	*	*	*
=46	=46	=46	=46	=46	=46	=46	=46	=46	=46	=46	=46	=46	=46	=46	=46	=46	=46	=46	=46	=46	=46	=46	=46	=46	=46
4C/	8 5 3	4g\	.	4ee\	.	4ccc\	.	4C/	-lis.	4e\	-lis	.	4g\	-lis	4cc\	-lis	1ryy	4e/	.	4cc\	.	4e/	4cc\	4cc\	4ee\
4r	.	4r	.	4r	.	4r	.	4r	.	4r	.	.	4r	.	4r	.	.	4r	.	4r	.	4r	4r	4r	4r
2r	.	2r	.	2r	.	2r	.	2r	.	2r	.	.	2r	.	2r	.	.	2r	.	2r	.	2r	2r	2r	2r
==	==	==	==	==	==	==	==	==	==	==	==	==	==	==	==	==	==	==	==	==	==	==	==	==	==
*-	*-	*-	*-	*-	*-	*-	*-	*-	*-	*-	*-	*-	*-	*-	*-	*-	*-	*-	*-	*-	*-	*-	*-	*-	*-
!!!system-decoration: [(g1)][(g2)]<s7>[(g3)][(g4)]<s15>
!!!ENC: Andrzej Gręziak
!!!END: 2020-09-22
!!!AIN: 1 alto 1 bass 2 cor 2 oboe 1 organ 1 soprn 1 tenor 1 timpa 2 tromp 1 viola 2 violn
!!!ENC: Andrzej Kubiczek
!!!END: 2022-02-01
